;FLAVOR:Marlin
;TIME:2755
;Filament used: 1.43359m
;Layer height: 0.2
;Generated with Cura_SteamEngine 3.4.0
M104 S200
M109 S200
M82 ;absolute extrusion mode
; -- START GCODE --
G21                     ;set units to millimetres
G90                     ;set to absolute positioning
M106 S0                 ;set fan speed to zero (turned off)
G28 X0 Y0               ;move to the X/Y origin (Home)
G28 Z0                  ;move to the Z origin (Home)
G1 Z15.0 F1200          ;move Z to position 15.0 mm
G92 E0                  ;zero the extruded length
G1 E20 F200             ;extrude 20mm of feed stock
G92 E0                  ;zero the extruded length again
G1 F7200                ;set feedrate to 120 mm/s
; -- end of START GCODE --
G92 E0
G1 F1500 E-6.5
;LAYER_COUNT:21
;LAYER:0
M107
G0 F2400 X98.213 Y150.563 Z0.2
;TYPE:SKIRT
G1 F1500 E0
G1 F1200 X98.927 Y150.136 E0.02767
G1 X100.79 Y149.27 E0.096
G1 X101.301 Y149.074 E0.1142
G1 X102.622 Y148.668 E0.16017
G1 X103.099 Y148.552 E0.1765
G1 X105.772 Y148.078 E0.26679
G1 X106.436 Y148.017 E0.28897
G1 X107.834 Y148.005 E0.33547
G1 X108.32 Y148.031 E0.35165
G1 X111.011 Y148.337 E0.44173
G1 X111.668 Y148.468 E0.46401
G1 X112.95 Y148.838 E0.50839
G1 X113.269 Y148.945 E0.51959
G1 X114.632 Y149.466 E0.56812
G1 X114.929 Y149.593 E0.57886
G1 X116.126 Y150.165 E0.62299
G1 X116.617 Y150.444 E0.64177
G1 X117.065 Y150.79 E0.6606
G1 X117.284 Y151.001 E0.67071
G1 X119.77 Y153.585 E0.78997
G1 X122.682 Y156.398 E0.92464
G1 X123.06 Y156.819 E0.94345
G1 X123.375 Y157.288 E0.96224
G1 X123.513 Y157.553 E0.97218
G1 X124.222 Y159.039 E1.02694
G1 X124.404 Y159.489 E1.04309
G1 X125.04 Y161.385 E1.1096
G1 X125.171 Y161.874 E1.12644
G1 X125.38 Y162.921 E1.16195
G1 X125.439 Y163.324 E1.1755
G1 X125.666 Y165.704 E1.25502
G1 X125.68 Y166.256 E1.27338
G1 X125.633 Y167.348 E1.30974
G1 X125.59 Y167.785 E1.32434
G1 X125.217 Y170.208 E1.40588
G1 X125.089 Y170.768 E1.42499
G1 X124.746 Y171.89 E1.46401
G1 X124.589 Y172.316 E1.47911
G1 X123.573 Y174.653 E1.56387
G1 X123.312 Y175.154 E1.58265
G1 X122.982 Y175.613 E1.60146
G1 X122.665 Y175.953 E1.61692
G1 X120.649 Y177.874 E1.70954
G1 X117.259 Y181.359 E1.87124
G1 X116.837 Y181.736 E1.89006
G1 X116.366 Y182.049 E1.90887
G1 X116.078 Y182.197 E1.91964
G1 X114.219 Y183.061 E1.98782
G1 X113.71 Y183.257 E2.00597
G1 X112.463 Y183.641 E2.04936
G1 X112.137 Y183.726 E2.06057
G1 X110.631 Y184.054 E2.11183
G1 X110.134 Y184.13 E2.12855
G1 X108.063 Y184.314 E2.19771
G1 X107.676 Y184.33 E2.21059
G1 X106.45 Y184.32 E2.25137
G1 X105.905 Y184.278 E2.26955
G1 X103.852 Y183.978 E2.33856
G1 X103.323 Y183.864 E2.35656
G1 X102.042 Y183.495 E2.40089
G1 X101.712 Y183.384 E2.41247
G1 X100.327 Y182.851 E2.46183
G1 X100.057 Y182.736 E2.47159
G1 X98.906 Y182.193 E2.51392
G1 X98.413 Y181.916 E2.53273
G1 X97.785 Y181.403 E2.5597
G1 X92.267 Y175.885 E2.81925
G1 X91.896 Y175.458 E2.83807
G1 X91.465 Y174.738 E2.86598
G1 X90.596 Y172.862 E2.93474
G1 X90.402 Y172.353 E2.95286
G1 X89.992 Y171.015 E2.9994
G1 X89.877 Y170.538 E3.01572
G1 X89.412 Y167.903 E3.10472
G1 X89.351 Y167.245 E3.1267
G1 X89.338 Y165.83 E3.17376
G1 X89.35 Y165.483 E3.18531
G1 X89.46 Y164.069 E3.23248
G1 X89.495 Y163.769 E3.24253
G1 X89.691 Y162.498 E3.2853
G1 X89.801 Y161.999 E3.30229
G1 X90.171 Y160.717 E3.34667
G1 X90.279 Y160.394 E3.358
G1 X90.81 Y159.009 E3.40734
G1 X90.928 Y158.733 E3.41732
G1 X91.478 Y157.568 E3.46017
G1 X91.755 Y157.075 E3.47898
G1 X92.268 Y156.446 E3.50597
G1 X97.786 Y150.933 E3.76541
G1 X98.213 Y150.563 E3.7842
G0 F2400 X98.475 Y150.867
G1 F1200 X99.096 Y150.498 E3.80822
G1 X100.959 Y149.632 E3.87656
G1 X101.418 Y149.456 E3.89291
G1 X102.739 Y149.05 E3.93887
G1 X103.168 Y148.946 E3.95355
G1 X105.841 Y148.472 E4.04384
G1 X106.439 Y148.417 E4.06382
G1 X107.837 Y148.405 E4.11032
G1 X108.275 Y148.428 E4.1249
G1 X110.966 Y148.734 E4.21498
G1 X111.557 Y148.852 E4.23503
G1 X112.839 Y149.222 E4.27941
G1 X113.126 Y149.318 E4.28947
G1 X114.489 Y149.839 E4.33801
G1 X114.756 Y149.954 E4.34768
G1 X115.953 Y150.526 E4.3918
G1 X116.418 Y150.792 E4.40962
G1 X116.995 Y151.278 E4.43471
G1 X119.486 Y153.867 E4.55421
G1 X122.404 Y156.686 E4.68915
G1 X122.761 Y157.086 E4.70698
G1 X123.152 Y157.725 E4.7319
G1 X123.861 Y159.211 E4.78666
G1 X124.025 Y159.616 E4.80119
G1 X124.661 Y161.512 E4.86771
G1 X124.778 Y161.952 E4.88285
G1 X124.987 Y162.999 E4.91836
G1 X125.041 Y163.362 E4.93057
G1 X125.268 Y165.742 E5.01009
G1 X125.281 Y166.239 E5.02662
G1 X125.234 Y167.331 E5.06298
G1 X125.195 Y167.724 E5.07611
G1 X124.822 Y170.147 E5.15765
G1 X124.707 Y170.651 E5.17485
G1 X124.364 Y171.773 E5.21387
G1 X124.222 Y172.156 E5.22745
G1 X123.206 Y174.493 E5.31221
G1 X122.957 Y174.968 E5.33005
G1 X122.639 Y175.4 E5.34789
G1 X122.389 Y175.664 E5.35998
G1 X120.356 Y177.602 E5.4534
G1 X116.972 Y181.08 E5.6148
G1 X116.571 Y181.436 E5.63264
G1 X115.909 Y181.835 E5.65834
G1 X114.05 Y182.699 E5.72653
G1 X113.592 Y182.875 E5.74284
G1 X112.345 Y183.259 E5.78624
G1 X112.052 Y183.336 E5.79632
G1 X110.546 Y183.664 E5.84758
G1 X110.099 Y183.732 E5.86262
G1 X108.028 Y183.916 E5.93177
G1 X107.68 Y183.93 E5.94336
G1 X106.454 Y183.92 E5.98414
G1 X105.962 Y183.882 E6.00055
G1 X103.909 Y183.582 E6.06956
G1 X103.434 Y183.479 E6.08572
G1 X102.153 Y183.11 E6.13006
G1 X101.856 Y183.011 E6.14047
G1 X100.471 Y182.478 E6.18983
G1 X100.228 Y182.374 E6.19862
G1 X99.077 Y181.831 E6.24095
G1 X98.61 Y181.567 E6.2588
G1 X98.067 Y181.121 E6.28217
G1 X92.549 Y175.603 E6.54172
G1 X92.2 Y175.196 E6.55955
G1 X91.828 Y174.57 E6.58377
G1 X90.959 Y172.694 E6.65253
G1 X90.784 Y172.236 E6.66884
G1 X90.374 Y170.898 E6.71539
G1 X90.271 Y170.469 E6.73006
G1 X89.806 Y167.834 E6.81905
G1 X89.751 Y167.241 E6.83886
G1 X89.738 Y165.826 E6.88593
G1 X89.749 Y165.514 E6.89631
G1 X89.859 Y164.1 E6.94348
G1 X89.89 Y163.83 E6.95252
G1 X90.086 Y162.559 E6.99529
G1 X90.185 Y162.11 E7.01059
G1 X90.555 Y160.828 E7.05497
G1 X90.653 Y160.537 E7.06518
G1 X91.184 Y159.152 E7.11451
G1 X91.29 Y158.904 E7.12349
G1 X91.84 Y157.739 E7.16633
G1 X92.104 Y157.273 E7.18415
G1 X92.551 Y156.729 E7.20757
G1 X98.069 Y151.216 E7.467
G1 X98.475 Y150.867 E7.48481
G0 F2400 X98.736 Y151.171
G1 F1200 X99.264 Y150.861 E7.50517
G1 X101.127 Y149.995 E7.5735
G1 X101.536 Y149.838 E7.58807
G1 X102.857 Y149.432 E7.63404
G1 X103.238 Y149.34 E7.64707
G1 X105.911 Y148.866 E7.73736
G1 X106.443 Y148.817 E7.75513
G1 X107.841 Y148.805 E7.80163
G1 X108.23 Y148.825 E7.81459
G1 X110.921 Y149.131 E7.90467
G1 X111.446 Y149.236 E7.92248
G1 X112.728 Y149.606 E7.96686
G1 X112.984 Y149.692 E7.97584
G1 X114.347 Y150.213 E8.02437
G1 X114.584 Y150.315 E8.03295
G1 X115.781 Y150.887 E8.07708
G1 X116.218 Y151.14 E8.09387
G1 X116.707 Y151.555 E8.1152
G1 X119.203 Y154.149 E8.23493
G1 X122.126 Y156.973 E8.37012
G1 X122.461 Y157.352 E8.38694
G1 X122.791 Y157.897 E8.40813
G1 X123.5 Y159.383 E8.46289
G1 X123.646 Y159.743 E8.47581
G1 X124.282 Y161.639 E8.54233
G1 X124.386 Y162.031 E8.55582
G1 X124.595 Y163.078 E8.59133
G1 X124.643 Y163.4 E8.60215
G1 X124.87 Y165.78 E8.68167
G1 X124.881 Y166.222 E8.69638
G1 X124.834 Y167.314 E8.73273
G1 X124.8 Y167.663 E8.7444
G1 X124.427 Y170.086 E8.82593
G1 X124.324 Y170.535 E8.84126
G1 X123.981 Y171.657 E8.88028
G1 X123.856 Y171.997 E8.89233
G1 X122.84 Y174.334 E8.97708
G1 X122.602 Y174.78 E8.9939
G1 X122.297 Y175.183 E9.01071
G1 X122.113 Y175.374 E9.01953
G1 X120.089 Y177.303 E9.11252
G1 X116.686 Y180.801 E9.27484
G1 X116.306 Y181.135 E9.29167
G1 X115.741 Y181.472 E9.31355
G1 X113.882 Y182.336 E9.38173
G1 X113.475 Y182.492 E9.39623
G1 X112.228 Y182.876 E9.43962
G1 X111.967 Y182.945 E9.4486
G1 X110.461 Y183.273 E9.49987
G1 X110.063 Y183.333 E9.51325
G1 X107.992 Y183.517 E9.58241
G1 X107.683 Y183.53 E9.59269
G1 X106.457 Y183.52 E9.63347
G1 X106.02 Y183.486 E9.64805
G1 X103.967 Y183.186 E9.71706
G1 X103.544 Y183.095 E9.73145
G1 X102.263 Y182.726 E9.77579
G1 X102 Y182.637 E9.78502
G1 X100.615 Y182.104 E9.83438
G1 X100.399 Y182.012 E9.84219
G1 X99.248 Y181.469 E9.88452
G1 X98.809 Y181.218 E9.90134
G1 X98.35 Y180.838 E9.92116
G1 X92.832 Y175.32 E10.18071
G1 X92.504 Y174.935 E10.19753
G1 X92.191 Y174.402 E10.21809
G1 X91.322 Y172.526 E10.28685
G1 X91.166 Y172.119 E10.30135
G1 X90.756 Y170.781 E10.3479
G1 X90.665 Y170.399 E10.36096
G1 X90.2 Y167.764 E10.44995
G1 X90.151 Y167.237 E10.46755
G1 X90.138 Y165.822 E10.51462
G1 X90.148 Y165.545 E10.52384
G1 X90.258 Y164.131 E10.57101
G1 X90.285 Y163.891 E10.57904
G1 X90.481 Y162.62 E10.62182
G1 X90.569 Y162.221 E10.63541
G1 X90.939 Y160.939 E10.67979
G1 X91.026 Y160.68 E10.68887
G1 X91.557 Y159.295 E10.73821
G1 X91.651 Y159.075 E10.74617
G1 X92.201 Y157.91 E10.78901
G1 X92.453 Y157.471 E10.80585
G1 X92.833 Y157.012 E10.82567
G1 X98.351 Y151.499 E11.0851
G1 X98.736 Y151.171 E11.10192
G1 F1500 E4.60192
G0 F2400 X101.118 Y152.784
G0 X101.653 Y153.941
G0 X107.206 Y152.741
G0 X107.794 Y152.741
G0 X108.366 Y152.882
G0 X108.889 Y153.156
G0 X109.329 Y153.547
G0 X109.518 Y153.821
G0 X110.864 Y156.338
G0 X110.964 Y156.338
;TYPE:WALL-INNER
G1 F1500 E11.10192
G1 F1200 X111.105 Y156.479 E11.10856
G1 X117.329 Y162.703 E11.40131
G1 X119.536 Y160.496 E11.50513
G1 X119.736 Y160.296 E11.51453
G1 X119.857 Y160.551 E11.52008
G1 X120.116 Y161.096 E11.54015
G1 X120.673 Y162.791 E11.59949
G1 X120.991 Y164.46 E11.656
G1 X121.027 Y165.05 E11.67566
G1 X121.042 Y165.295 E11.68383
G1 X121.077 Y165.865 E11.70282
G1 X121.097 Y166.19 E11.71365
G1 X121.08 Y166.468 E11.72292
G1 X121.044 Y167.039 E11.74195
G1 X121.029 Y167.281 E11.75001
G1 X120.991 Y167.877 E11.76987
G1 X120.667 Y169.568 E11.82714
G1 X120.143 Y171.171 E11.88323
G1 X119.855 Y171.781 E11.90567
G1 X119.854 Y171.782 E11.90571
G1 X119.734 Y172.037 E11.91509
G1 X119.534 Y171.837 E11.92065
G1 X117.329 Y169.632 E12.02437
G1 X111.105 Y175.855 E12.3171
G1 X110.964 Y175.996 E12.32373
G1 X111.105 Y176.137 E12.32802
G1 X113.164 Y178.195 E12.42484
G1 X113.366 Y178.397 E12.43434
G1 X113.107 Y178.517 E12.43994
G1 X112.298 Y178.892 E12.4696
G1 X110.448 Y179.442 E12.53379
G1 X108.653 Y179.704 E12.59413
G1 X108.464 Y179.731 E12.60048
G1 X108.352 Y179.731 E12.6042
G1 X107.79 Y179.731 E12.62289
G1 X107.21 Y179.731 E12.64218
G1 X106.648 Y179.73 E12.66088
G1 X106.502 Y179.729 E12.66573
G1 X106.345 Y179.706 E12.67101
G1 X104.552 Y179.442 E12.73129
G1 X102.703 Y178.893 E12.79544
G1 X101.893 Y178.517 E12.82514
G1 X101.634 Y178.397 E12.83464
G1 X101.836 Y178.195 E12.84024
G1 X103.895 Y176.137 E12.93706
G1 X104.036 Y175.996 E12.94369
G1 X103.895 Y175.855 E12.94798
G1 X97.671 Y169.632 E13.24071
G1 X95.472 Y171.831 E13.34414
G1 X95.27 Y172.033 E13.35365
G1 X95.15 Y171.774 E13.35924
G1 X94.776 Y170.966 E13.38886
G1 X94.225 Y169.116 E13.45306
G1 X93.963 Y167.321 E13.51339
G1 X93.936 Y167.131 E13.51978
G1 X93.936 Y167.021 E13.52343
G1 X93.936 Y166.457 E13.54219
G1 X93.937 Y165.877 E13.56148
G1 X93.938 Y165.314 E13.58021
G1 X93.939 Y165.169 E13.58503
G1 X93.962 Y165.007 E13.59047
G1 X94.225 Y163.219 E13.65058
G1 X94.775 Y161.37 E13.71474
G1 X95.15 Y160.56 E13.74443
G1 X95.27 Y160.301 E13.75393
G1 X95.472 Y160.503 E13.75953
G1 X97.53 Y162.562 E13.85635
G1 X97.671 Y162.703 E13.86299
G1 X97.812 Y162.562 E13.86727
G1 X103.895 Y156.479 E14.15339
G1 X104.036 Y156.338 E14.16003
G1 X103.895 Y156.197 E14.16431
G1 X101.836 Y154.14 E14.26111
G1 X101.634 Y153.938 E14.27061
G1 X101.893 Y153.818 E14.27621
G1 X102.702 Y153.443 E14.30587
G1 X104.552 Y152.892 E14.37007
G1 X106.345 Y152.631 E14.43033
G1 X106.536 Y152.604 E14.43675
G1 X106.648 Y152.604 E14.44047
G1 X107.21 Y152.604 E14.45917
G1 X107.79 Y152.604 E14.47846
G1 X108.352 Y152.605 E14.49715
G1 X108.499 Y152.606 E14.50204
G1 X108.659 Y152.629 E14.50741
G1 X110.448 Y152.892 E14.56756
G1 X112.297 Y153.442 E14.63172
G1 X113.107 Y153.818 E14.66142
G1 X113.366 Y153.938 E14.67091
G1 X113.164 Y154.14 E14.67651
G1 X111.105 Y156.197 E14.77332
G1 X110.964 Y156.338 E14.7776
G0 F2400 X110.864 Y156.338
G0 X118.029 Y163.729
G0 X119.085 Y163.795
G0 X119.635 Y164.003
G0 X120.121 Y164.339
G0 X120.511 Y164.78
G0 X120.785 Y165.3
G0 X120.926 Y165.873
G0 X120.926 Y166.461
G0 X120.785 Y167.035
G0 X120.708 Y167.182
G0 X120.161 Y168.042
G0 X120.095 Y167.968
G1 F1200 X120.479 Y167.533 E14.7969
G1 X120.635 Y167.236 E14.80806
G1 X120.748 Y167.021 E14.81511
G1 X120.887 Y166.457 E14.82731
G1 X120.887 Y166.19 E14.83169
G1 X120.887 Y165.877 E14.8368
G1 X120.748 Y165.314 E14.84855
G1 X120.634 Y165.097 E14.85564
G1 X120.479 Y164.802 E14.86673
G1 X120.095 Y164.368 E14.886
G1 X119.617 Y164.038 E14.90532
G1 X119.076 Y163.833 E14.92456
G1 X118.536 Y163.767 E14.94266
G1 X115.467 Y163.767 E15.04473
G1 X114.984 Y163.82 E15.06089
G1 X114.491 Y163.985 E15.07818
G1 X114.046 Y164.254 E15.09548
G1 X113.67 Y164.61 E15.1127
G1 X113.617 Y164.687 E15.11581
G1 X113.606 Y164.676
G1 X108.993 Y160.063 E15.33279
G1 X108.98 Y160.05 E15.3334
G1 X109.057 Y159.997 E15.33506
G1 X109.414 Y159.622 E15.35228
G1 X109.682 Y159.174 E15.36964
G1 X109.847 Y158.683 E15.38687
G1 X109.9 Y158.2 E15.40303
G1 X109.9 Y155.131 E15.50511
G1 X109.835 Y154.593 E15.52313
G1 X109.629 Y154.05 E15.54245
G1 X109.3 Y153.573 E15.56172
G1 X108.867 Y153.188 E15.58099
G1 X108.495 Y152.994 E15.59495
G1 X108.352 Y152.919 E15.59989
G1 X107.79 Y152.78 E15.61227
G1 X107.21 Y152.78 E15.62075
G1 X106.648 Y152.919 E15.63273
G1 X106.477 Y153.008 E15.63862
G1 X106.133 Y153.188 E15.65153
G1 X105.7 Y153.573 E15.6708
G1 X105.371 Y154.05 E15.69007
G1 X105.165 Y154.593 E15.70939
G1 X105.1 Y155.131 E15.72741
G1 X105.1 Y158.2 E15.82949
G1 X105.153 Y158.683 E15.84565
G1 X105.318 Y159.174 E15.86288
G1 X105.586 Y159.622 E15.88024
G1 X105.943 Y159.997 E15.89746
G1 X106.02 Y160.05 E15.90057
G1 X106.009 Y160.061
G1 X101.396 Y164.674 E16.11755
G1 X101.383 Y164.687 E16.11816
G1 X101.33 Y164.61 E16.11982
G1 X100.954 Y164.254 E16.13704
G1 X100.509 Y163.985 E16.15434
G1 X100.016 Y163.82 E16.17163
G1 X99.533 Y163.767 E16.18779
G1 X96.464 Y163.767 E16.28987
G1 X95.925 Y163.833 E16.30793
G1 X95.382 Y164.038 E16.32723
G1 X94.904 Y164.368 E16.34655
G1 X94.521 Y164.802 E16.3658
G1 X94.328 Y165.169 E16.37959
G1 X94.252 Y165.314 E16.38461
G1 X94.113 Y165.877 E16.39701
G1 X94.113 Y166.457 E16.40552
G1 X94.252 Y167.021 E16.41758
G1 X94.341 Y167.191 E16.42344
G1 X94.521 Y167.533 E16.4363
G1 X94.905 Y167.968 E16.4556
G1 X95.382 Y168.296 E16.47485
G1 X95.925 Y168.502 E16.49417
G1 X96.464 Y168.567 E16.51222
G1 X99.532 Y168.567 E16.61426
G1 X100.003 Y168.517 E16.63002
G1 X100.483 Y168.361 E16.64681
G1 X100.921 Y168.105 E16.66368
G1 X101.294 Y167.767 E16.68042
G1 X101.349 Y167.691 E16.68354
G1 X101.358 Y167.7
G1 X105.965 Y172.307 E16.90024
G1 X105.977 Y172.319 E16.9008
G1 X105.901 Y172.373 E16.90247
G1 X105.561 Y172.748 E16.91931
G1 X105.308 Y173.184 E16.93607
G1 X105.15 Y173.664 E16.95288
G1 X105.1 Y174.135 E16.96864
G1 X105.1 Y177.203 E17.07068
G1 X105.165 Y177.742 E17.08873
G1 X105.371 Y178.285 E17.10805
G1 X105.7 Y178.762 E17.12732
G1 X106.135 Y179.147 E17.14664
G1 X106.507 Y179.342 E17.16061
G1 X106.648 Y179.415 E17.16547
G1 X107.21 Y179.554 E17.1779
G1 X107.79 Y179.554 E17.18643
G1 X108.352 Y179.415 E17.19845
G1 X108.521 Y179.327 E17.20428
G1 X108.865 Y179.147 E17.21719
G1 X109.3 Y178.762 E17.23651
G1 X109.629 Y178.285 E17.25579
G1 X109.835 Y177.742 E17.2751
G1 X109.9 Y177.203 E17.29316
G1 X109.9 Y174.135 E17.3952
G1 X109.85 Y173.664 E17.41096
G1 X109.692 Y173.184 E17.42776
G1 X109.439 Y172.748 E17.44453
G1 X109.099 Y172.373 E17.46137
G1 X109.023 Y172.319 E17.46447
G1 X109.033 Y172.309
G1 X113.641 Y167.701 E17.68121
G1 X113.651 Y167.691 E17.68168
G1 X113.706 Y167.767 E17.68336
G1 X114.079 Y168.105 E17.70011
G1 X114.517 Y168.361 E17.71698
G1 X114.997 Y168.517 E17.73377
G1 X115.468 Y168.567 E17.74952
G1 X118.536 Y168.567 E17.85156
G1 X119.076 Y168.502 E17.86965
G1 X119.617 Y168.296 E17.88891
G1 X120.095 Y167.968 E17.90819
G0 F2400 X119.828 Y167.666
;TYPE:WALL-OUTER
G1 F1200 X120.147 Y167.304 E17.92424
G1 X120.371 Y166.878 E17.94024
G1 X120.487 Y166.408 E17.95634
G1 X120.487 Y165.926 E17.97238
G1 X120.371 Y165.457 E17.98845
G1 X120.147 Y165.031 E18.00445
G1 X119.828 Y164.669 E18.0205
G1 X119.43 Y164.395 E18.03657
G1 X118.979 Y164.224 E18.05261
