;FLAVOR:Marlin
;TIME:4054
;Filament used: 2.10674m
;Layer height: 0.2
;Generated with Cura_SteamEngine 3.4.0
M104 S200
M109 S200
M82 ;absolute extrusion mode
; -- START GCODE --
G21                     ;set units to millimetres
G90                     ;set to absolute positioning
M106 S0                 ;set fan speed to zero (turned off)
G28 X0 Y0               ;move to the X/Y origin (Home)
G28 Z0                  ;move to the Z origin (Home)
G1 Z15.0 F1200          ;move Z to position 15.0 mm
G92 E0                  ;zero the extruded length
G1 E20 F200             ;extrude 20mm of feed stock
G92 E0                  ;zero the extruded length again
G1 F7200                ;set feedrate to 120 mm/s
; -- end of START GCODE --
G92 E0
G1 F1500 E-6.5
;LAYER_COUNT:148
;LAYER:0
M107
G0 F2400 X150.026 Y50.561 Z0.2
;TYPE:SKIRT
G1 F1500 E0
G1 F1200 X150.291 Y50.001 E0.02061
G1 X150.627 Y49.481 E0.0412
G1 X151.027 Y49.007 E0.06183
G1 X151.484 Y48.59 E0.0824
G1 X151.991 Y48.234 E0.10301
G1 X152.54 Y47.947 E0.12361
G1 X153.121 Y47.733 E0.14421
G1 X153.725 Y47.596 E0.1648
G1 X154.487 Y47.535 E0.19023
G1 X166.442 Y47.537 E0.58785
G1 X167.06 Y47.577 E0.60845
G1 X167.668 Y47.696 E0.62906
G1 X168.255 Y47.893 E0.64965
G1 X168.812 Y48.164 E0.67025
G1 X169.33 Y48.504 E0.69086
G1 X169.799 Y48.907 E0.71143
G1 X170.213 Y49.368 E0.73204
G1 X170.564 Y49.879 E0.75266
G1 X170.846 Y50.43 E0.77324
G1 X171.055 Y51.013 E0.79384
G1 X171.187 Y51.618 E0.81444
G1 X171.241 Y52.291 E0.8369
G1 X171.293 Y57.712 E1.01721
G1 X171.259 Y58.33 E1.03779
G1 X171.145 Y58.939 E1.0584
G1 X170.955 Y59.528 E1.07898
G1 X170.689 Y60.088 E1.0996
G1 X170.354 Y60.609 E1.12021
G1 X169.955 Y61.083 E1.14081
G1 X169.498 Y61.501 E1.16141
G1 X168.991 Y61.857 E1.18202
G1 X168.443 Y62.144 E1.20259
G1 X167.862 Y62.359 E1.2232
G1 X167.258 Y62.497 E1.2438
G1 X166.493 Y62.558 E1.26933
G1 X154.41 Y62.559 E1.67121
G1 X153.792 Y62.519 E1.69181
G1 X153.185 Y62.4 E1.71238
G1 X152.597 Y62.204 E1.733
G1 X152.04 Y61.933 E1.7536
G1 X151.522 Y61.593 E1.77421
G1 X151.053 Y61.189 E1.7948
G1 X150.639 Y60.729 E1.81538
G1 X150.288 Y60.218 E1.836
G1 X150.005 Y59.667 E1.8566
G1 X149.796 Y59.084 E1.8772
G1 X149.664 Y58.479 E1.8978
G1 X149.61 Y57.75 E1.92211
G1 X149.619 Y52.88 E2.08409
G1 X149.654 Y52.313 E2.10298
G1 X149.721 Y51.759 E2.12154
G1 X149.835 Y51.15 E2.14215
G1 X150.026 Y50.561 E2.16274
G0 F2400 X150.417 Y50.662
G1 F1200 X150.678 Y50.13 E2.18245
G1 X151.01 Y49.638 E2.20219
G1 X151.404 Y49.195 E2.22191
G1 X151.854 Y48.809 E2.24163
G1 X152.352 Y48.487 E2.26135
G1 X152.889 Y48.235 E2.28108
G1 X153.454 Y48.058 E2.30078
G1 X154.039 Y47.958 E2.32052
G1 X154.487 Y47.935 E2.33544
G1 X166.442 Y47.937 E2.73306
G1 X167.033 Y47.977 E2.75276
G1 X167.614 Y48.096 E2.77249
G1 X168.174 Y48.293 E2.79223
G1 X168.702 Y48.562 E2.81194
G1 X169.189 Y48.901 E2.83168
G1 X169.626 Y49.301 E2.85138
G1 X170.005 Y49.757 E2.8711
G1 X170.32 Y50.26 E2.89084
G1 X170.564 Y50.8 E2.91055
G1 X170.733 Y51.368 E2.93026
G1 X170.824 Y51.954 E2.94999
G1 X170.841 Y52.295 E2.96134
G1 X170.893 Y57.716 E3.14165
G1 X170.859 Y58.308 E3.16138
G1 X170.745 Y58.89 E3.1811
G1 X170.554 Y59.451 E3.20081
G1 X170.29 Y59.982 E3.22053
G1 X169.956 Y60.472 E3.24026
G1 X169.56 Y60.913 E3.25997
G1 X169.108 Y61.297 E3.2797
G1 X168.608 Y61.616 E3.29942
G1 X168.07 Y61.866 E3.31916
G1 X167.504 Y62.04 E3.33885
G1 X166.919 Y62.137 E3.35857
G1 X166.493 Y62.158 E3.37276
G1 X154.41 Y62.159 E3.77464
G1 X153.819 Y62.119 E3.79434
G1 X153.238 Y62 E3.81407
G1 X152.678 Y61.804 E3.8338
G1 X152.15 Y61.534 E3.85353
G1 X151.663 Y61.196 E3.87324
G1 X151.226 Y60.796 E3.89295
G1 X150.846 Y60.34 E3.91269
G1 X150.532 Y59.837 E3.93241
G1 X150.288 Y59.297 E3.95212
G1 X150.118 Y58.729 E3.97184
G1 X150.027 Y58.143 E3.99156
G1 X150.01 Y57.751 E4.00461
G1 X150.019 Y52.881 E4.16659
G1 X150.051 Y52.361 E4.18392
G1 X150.118 Y51.807 E4.20248
G1 X150.229 Y51.224 E4.22222
G1 X150.417 Y50.662 E4.24193
G0 F2400 X150.807 Y50.765
G1 F1200 X151.065 Y50.262 E4.26073
G1 X151.391 Y49.801 E4.27951
G1 X151.779 Y49.39 E4.29831
G1 X152.222 Y49.038 E4.31713
G1 X152.709 Y48.751 E4.33593
G1 X153.232 Y48.537 E4.35473
G1 X153.78 Y48.398 E4.37353
G1 X154.487 Y48.335 E4.39714
G1 X166.442 Y48.337 E4.79476
G1 X167.006 Y48.377 E4.81357
G1 X167.558 Y48.496 E4.83235
G1 X168.089 Y48.692 E4.85118
G1 X168.586 Y48.961 E4.86997
G1 X169.041 Y49.297 E4.88878
G1 X169.443 Y49.694 E4.90758
G1 X169.786 Y50.143 E4.92637
G1 X170.062 Y50.637 E4.94519
G1 X170.265 Y51.164 E4.96397
G1 X170.392 Y51.715 E4.98278
G1 X170.441 Y52.299 E5.00227
G1 X170.493 Y57.72 E5.18258
G1 X170.458 Y58.284 E5.20138
G1 X170.345 Y58.838 E5.22018
G1 X170.154 Y59.37 E5.23898
G1 X169.89 Y59.87 E5.25779
G1 X169.558 Y60.328 E5.2766
G1 X169.165 Y60.734 E5.2954
G1 X168.719 Y61.081 E5.31419
G1 X168.228 Y61.362 E5.33301
G1 X167.703 Y61.571 E5.3518
G1 X167.153 Y61.703 E5.37062
G1 X166.493 Y61.758 E5.39264
G1 X154.41 Y61.759 E5.79453
G1 X153.846 Y61.719 E5.81333
G1 X153.294 Y61.6 E5.83211
G1 X152.763 Y61.404 E5.85094
G1 X152.266 Y61.136 E5.86972
G1 X151.811 Y60.8 E5.88853
G1 X151.409 Y60.403 E5.90732
G1 X151.066 Y59.954 E5.92612
G1 X150.79 Y59.46 E5.94494
G1 X150.586 Y58.933 E5.96373
G1 X150.459 Y58.382 E5.98254
G1 X150.41 Y57.752 E6.00356
G1 X150.419 Y52.882 E6.16553
G1 X150.448 Y52.409 E6.1813
G1 X150.515 Y51.855 E6.19986
G1 X150.622 Y51.3 E6.21865
G1 X150.807 Y50.765 E6.23748
G0 F2400 X151.197 Y50.872
G1 F1200 X151.451 Y50.399 E6.25534
G1 X151.772 Y49.97 E6.27316
G1 X152.153 Y49.593 E6.29099
G1 X152.587 Y49.277 E6.30884
G1 X153.062 Y49.029 E6.32667
G1 X153.569 Y48.854 E6.3445
G1 X154.096 Y48.756 E6.36233
G1 X154.487 Y48.735 E6.37536
G1 X166.442 Y48.737 E6.77298
G1 X166.976 Y48.777 E6.79079
G1 X167.499 Y48.896 E6.80863
G1 X167.999 Y49.091 E6.82648
G1 X168.464 Y49.359 E6.84433
G1 X168.884 Y49.692 E6.86216
G1 X169.249 Y50.085 E6.88
G1 X169.553 Y50.527 E6.89784
G1 X169.787 Y51.009 E6.91566
G1 X169.947 Y51.521 E6.9335
G1 X170.041 Y52.302 E6.95967
G1 X170.093 Y57.723 E7.13998
G1 X170.058 Y58.259 E7.15784
G1 X169.944 Y58.783 E7.17568
G1 X169.754 Y59.284 E7.1935
G1 X169.491 Y59.751 E7.21133
G1 X169.161 Y60.175 E7.2292
G1 X168.773 Y60.544 E7.24701
G1 X168.334 Y60.852 E7.26484
G1 X167.853 Y61.091 E7.28271
G1 X167.343 Y61.256 E7.30054
G1 X166.814 Y61.344 E7.31837
G1 X166.493 Y61.358 E7.32906
G1 X154.41 Y61.359 E7.73094
G1 X153.876 Y61.319 E7.74875
G1 X153.353 Y61.2 E7.76659
G1 X152.853 Y61.005 E7.78444
G1 X152.388 Y60.738 E7.80228
G1 X151.968 Y60.404 E7.82012
G1 X151.602 Y60.012 E7.83796
G1 X151.299 Y59.57 E7.85579
G1 X151.064 Y59.088 E7.87362
G1 X150.904 Y58.576 E7.89146
G1 X150.821 Y58.046 E7.9093
G1 X150.81 Y57.752 E7.91909
G1 X150.819 Y52.882 E8.08107
G1 X150.845 Y52.457 E8.09523
G1 X150.912 Y51.903 E8.11379
G1 X151.016 Y51.377 E8.13162
G1 X151.197 Y50.872 E8.14947
G0 F2400 X151.586 Y50.982
G1 F1200 X151.836 Y50.542 E8.1663
G1 X152.151 Y50.147 E8.1831
G1 X152.525 Y49.806 E8.19993
G1 X152.948 Y49.529 E8.21675
G1 X153.409 Y49.322 E8.23356
G1 X153.897 Y49.19 E8.25037
G1 X154.487 Y49.135 E8.27008
G1 X166.442 Y49.137 E8.66771
G1 X166.946 Y49.177 E8.68452
G1 X167.437 Y49.296 E8.70133
G1 X167.903 Y49.491 E8.71813
G1 X168.333 Y49.757 E8.73495
G1 X168.716 Y50.087 E8.75176
G1 X169.042 Y50.473 E8.76856
G1 X169.303 Y50.906 E8.78538
G1 X169.493 Y51.375 E8.80221
G1 X169.606 Y51.868 E8.81903
G1 X169.641 Y52.306 E8.83365
G1 X169.693 Y57.727 E9.01396
G1 X169.658 Y58.232 E9.0308
G1 X169.544 Y58.724 E9.04759
G1 X169.353 Y59.193 E9.06444
G1 X169.092 Y59.625 E9.08122
G1 X168.765 Y60.011 E9.09805
G1 X168.382 Y60.341 E9.11486
G1 X167.952 Y60.606 E9.13166
G1 X167.485 Y60.8 E9.14848
G1 X166.993 Y60.919 E9.16532
G1 X166.493 Y60.958 E9.182
G1 X154.41 Y60.959 E9.58388
G1 X153.906 Y60.919 E9.6007
G1 X153.415 Y60.8 E9.6175
G1 X152.948 Y60.606 E9.63432
G1 X152.518 Y60.34 E9.65114
G1 X152.135 Y60.01 E9.66795
G1 X151.809 Y59.623 E9.68478
G1 X151.548 Y59.191 E9.70157
G1 X151.358 Y58.722 E9.7184
G1 X151.245 Y58.229 E9.73522
G1 X151.21 Y57.753 E9.7511
G1 X151.219 Y52.883 E9.91307
G1 X151.242 Y52.505 E9.92567
G1 X151.309 Y51.951 E9.94423
G1 X151.409 Y51.455 E9.96106
G1 X151.586 Y50.982 E9.97786
G1 F1500 E3.47786
G0 F2400 X153.746 Y52.902
G0 X155.025 Y52.941
G0 X165.802 Y53.314
G0 X165.901 Y53.313
;TYPE:WALL-INNER
G1 F1500 E9.97786
G1 F1200 X165.902 Y56.968 E10.09942
G1 X165.902 Y57.168 E10.10607
G1 X165.702 Y57.168 E10.11038
G1 X155.001 Y57.168 E10.4663
G1 X155.001 Y53.286 E10.59541
G1 X155.012 Y52.927 E10.60736
G1 X165.889 Y52.927 E10.96913
G1 X165.901 Y53.313 E10.98198
G0 F2400 X166.28 Y52.625
;TYPE:WALL-OUTER
G1 F1200 X166.301 Y53.313 E11.00487
G1 X166.302 Y57.368 E11.13974
G1 X166.302 Y57.568 E11.14639
G1 X166.102 Y57.568 E11.1507
G1 X154.601 Y57.568 E11.53322
G1 X154.601 Y53.274 E11.67604
G1 X154.621 Y52.626 E11.6976
G1 X154.632 Y52.527 E11.70092
G1 X166.27 Y52.527 E12.088
G1 X166.28 Y52.625 E12.09128
G0 F2400 X166.286 Y52.825
G0 X165.82 Y52.998
G0 X165.511 Y53.317
;TYPE:SKIN
G1 F1200 X165.512 Y56.778 E12.20639
G1 X155.391 Y56.778 E12.54301
G1 X155.391 Y53.317 E12.65813
G1 X165.511 Y53.317 E12.99472
G0 F2400 X165.33 Y53.89
G1 F1200 X164.936 Y53.496 E13.01325
G0 F2400 X164.371 Y53.496
G1 F1200 X165.33 Y54.456 E13.05839
G1 X165.4 Y54.526
G0 F2400 X165.33 Y55.022
G1 F1200 X163.805 Y53.496 E13.13014
G1 X163.735 Y53.426
G0 F2400 X163.239 Y53.496
G1 F1200 X165.331 Y55.588 E13.22854
G1 X165.401 Y55.658
G0 F2400 X165.331 Y56.154
G1 F1200 X162.674 Y53.496 E13.35354
G1 X162.604 Y53.426
G0 F2400 X162.108 Y53.496
G1 F1200 X165.209 Y56.598 E13.49943
G1 X165.279 Y56.668
G0 F2400 X164.644 Y56.598
G1 F1200 X161.542 Y53.496 E13.64534
G1 X161.472 Y53.426
G0 F2400 X160.977 Y53.496
G1 F1200 X164.078 Y56.598 E13.79122
G1 X164.148 Y56.668
G0 F2400 X163.512 Y56.598
G1 F1200 X160.411 Y53.496 E13.93711
G1 X160.341 Y53.426
G0 F2400 X159.845 Y53.496
G1 F1200 X162.947 Y56.598 E14.08301
G1 X163.017 Y56.668
G0 F2400 X162.381 Y56.598
G1 F1200 X159.28 Y53.496 E14.2289
G1 X159.21 Y53.426
G0 F2400 X158.714 Y53.496
G1 F1200 X161.815 Y56.598 E14.37478
G1 X161.885 Y56.668
G0 F2400 X161.25 Y56.598
G1 F1200 X158.148 Y53.496 E14.52069
G1 X158.078 Y53.426
G0 F2400 X157.582 Y53.496
G1 F1200 X160.684 Y56.598 E14.6666
G1 X160.754 Y56.668
G0 F2400 X160.118 Y56.598
G1 F1200 X157.017 Y53.496 E14.81249
G1 X156.947 Y53.426
G0 F2400 X156.451 Y53.496
G1 F1200 X159.552 Y56.598 E14.95837
G1 X159.622 Y56.668
G0 F2400 X158.987 Y56.598
G1 F1200 X155.885 Y53.496 E15.10428
G1 X155.815 Y53.426
G0 F2400 X155.57 Y53.747
G1 F1200 X158.421 Y56.598 E15.23838
G1 X158.491 Y56.668
G0 F2400 X157.855 Y56.598
G1 F1200 X155.57 Y54.312 E15.34589
G1 X155.5 Y54.242
G0 F2400 X155.57 Y54.878
G1 F1200 X157.29 Y56.598 E15.42679
G1 X157.36 Y56.668
G0 F2400 X156.724 Y56.598
G1 F1200 X155.57 Y55.444 E15.48107
G1 X155.5 Y55.374
G0 F2400 X155.57 Y56.009
G1 F1200 X156.158 Y56.598 E15.50875
G1 X156.228 Y56.668
G0 F2400 X165.82 Y52.998
G0 X165.981 Y52.664
;TIME_ELAPSED:33.636128
;LAYER:1
M106 S255
G0 F3600 X165.981 Y52.664 Z0.4
;TYPE:WALL-INNER
G1 F1800 X166.002 Y53.268 E15.52885
G1 X166.002 Y57.168 E15.65857
G1 X154.901 Y57.168 E16.02779
G1 X154.901 Y53.287 E16.15687
G1 X154.921 Y52.653 E16.17797
G1 X154.967 Y52.192 E16.19338
G1 X165.934 Y52.191 E16.55814
G1 X165.981 Y52.664 E16.57395
G0 F3600 X166.318 Y52.011
;TYPE:WALL-OUTER
G1 F1200 X166.381 Y52.64 E16.59498
G1 X166.402 Y53.268 E16.61587
G1 X166.402 Y57.568 E16.75889
G1 X154.501 Y57.568 E17.15472
G1 X154.501 Y53.274 E17.29754
G1 X154.521 Y52.639 E17.31867
G1 X154.583 Y52.012 E17.33963
G1 X154.62 Y51.792 E17.34705
G1 X166.282 Y51.791 E17.73493
G1 X166.318 Y52.011 E17.74234
G0 F3600 X166.337 Y52.21
G0 X165.84 Y52.257
G0 X165.581 Y52.581
;TYPE:SKIN
G1 F1200 X165.591 Y52.678 E17.74558
G1 X165.612 Y53.268 E17.76522
G1 X165.612 Y56.778 E17.88196
G1 X155.291 Y56.778 E18.22524
G1 X155.291 Y53.299 E18.34095
G1 X155.311 Y52.665 E18.36205
G1 X155.32 Y52.582 E18.36483
G1 X165.581 Y52.581 E18.70611
G0 F3600 X165.431 Y56.317
G1 F1200 X165.15 Y56.598 E18.71933
G0 F3600 X164.584 Y56.598
G1 F1200 X165.431 Y55.751 E18.75917
G1 X165.501 Y55.681
G0 F3600 X165.431 Y55.186
G1 F1200 X164.019 Y56.598 E18.82558
G1 X163.949 Y56.668
G0 F3600 X163.453 Y56.598
G1 F1200 X165.431 Y54.62 E18.91862
G1 X165.501 Y54.55
G0 F3600 X165.431 Y54.054
G1 F1200 X162.887 Y56.598 E19.03828
G1 X162.817 Y56.668
G0 F3600 X162.322 Y56.598
G1 F1200 X165.431 Y53.489 E19.18452
G1 X165.501 Y53.419
G0 F3600 X165.418 Y52.936
G1 F1200 X161.756 Y56.598 E19.35677
G1 X161.686 Y56.668
G0 F3600 X161.19 Y56.598
G1 F1200 X165.027 Y52.761 E19.53725
G1 X165.097 Y52.691
G0 F3600 X164.461 Y52.761
G1 F1200 X160.624 Y56.598 E19.71773
G1 X160.554 Y56.668
G0 F3600 X160.059 Y56.598
G1 F1200 X163.896 Y52.761 E19.89821
G1 X163.966 Y52.691
G0 F3600 X163.33 Y52.761
G1 F1200 X159.493 Y56.598 E20.07869
G1 X159.423 Y56.668
G0 F3600 X158.927 Y56.598
G1 F1200 X162.764 Y52.761 E20.25918
G1 X162.834 Y52.691
G0 F3600 X162.198 Y52.761
G1 F1200 X158.362 Y56.598 E20.43963
G1 X158.292 Y56.668
G0 F3600 X157.796 Y56.598
G1 F1200 X161.633 Y52.761 E20.62011
G1 X161.703 Y52.691
G0 F3600 X161.067 Y52.761
G1 F1200 X157.23 Y56.598 E20.80059
G1 X157.16 Y56.668
G0 F3600 X156.665 Y56.598
G1 F1200 X160.501 Y52.761 E20.98105
G1 X160.571 Y52.691
G0 F3600 X159.936 Y52.761
G1 F1200 X156.099 Y56.598 E21.16153
G1 X156.029 Y56.668
G0 F3600 X155.533 Y56.598
G1 F1200 X159.37 Y52.761 E21.34201
G1 X159.44 Y52.691
G0 F3600 X158.804 Y52.761
G1 F1200 X155.47 Y56.096 E21.49886
G1 X155.4 Y56.166
G0 F3600 X155.47 Y55.53
G1 F1200 X158.239 Y52.761 E21.6291
G1 X158.309 Y52.691
G0 F3600 X157.673 Y52.761
G1 F1200 X155.47 Y54.964 E21.73272
G1 X155.4 Y55.034
G0 F3600 X155.47 Y54.399
G1 F1200 X157.107 Y52.761 E21.80975
G1 X157.177 Y52.691
G0 F3600 X156.542 Y52.761
G1 F1200 X155.47 Y53.833 E21.86017
G1 X155.4 Y53.903
G0 F3600 X155.471 Y53.266
G1 F1200 X155.976 Y52.761 E21.88393
G0 F3600 X165.867 Y52.265
G0 X166.024 Y52.084
;TIME_ELAPSED:43.649331
;LAYER:2
G0 F4800 X166.024 Y52.084 Z0.6
;TYPE:WALL-INNER
G1 F2400 X166.081 Y52.667 E21.90341
G1 X166.102 Y53.268 E21.92341
G1 X166.102 Y57.168 E22.05312
G1 X154.801 Y57.168 E22.429
G1 X154.801 Y53.287 E22.55808
G1 X154.821 Y52.667 E22.57871
G1 X154.876 Y52.103 E22.59756
G1 X154.941 Y51.713 E22.61071
G1 X165.961 Y51.713 E22.97724
G1 X166.024 Y52.084 E22.98975
G0 F4800 X166.318 Y51.424
;TYPE:WALL-OUTER
G1 F1200 X166.421 Y52.037 E23.01043
G1 X166.481 Y52.653 E23.03101
G1 X166.502 Y53.268 E23.05148
G1 X166.502 Y57.568 E23.1945
G1 X154.401 Y57.568 E23.59698
G1 X154.401 Y53.274 E23.7398
G1 X154.421 Y52.652 E23.7605
G1 X154.481 Y52.037 E23.78105
G1 X154.583 Y51.425 E23.80168
G1 X154.61 Y51.313 E23.80552
G1 X166.292 Y51.313 E24.19406
G1 X166.318 Y51.424 E24.19785
G0 F4800 X166.351 Y51.621
G0 X165.897 Y51.789
G0 X165.632 Y52.103
;TYPE:SKIN
G1 F1200 X165.691 Y52.681 E24.21718
G1 X165.712 Y53.268 E24.23671
G1 X165.712 Y56.778 E24.35346
G1 X155.191 Y56.778 E24.70339
G1 X155.191 Y53.299 E24.8191
G1 X155.211 Y52.679 E24.83973
G1 X155.27 Y52.103 E24.85899
G1 X165.632 Y52.103 E25.20363
G0 F4800 X164.854 Y52.282
G1 F1200 X165.52 Y52.948 E25.23496
G1 X165.59 Y53.018
G0 F4800 X165.532 Y53.526
G1 F1200 X164.288 Y52.282 E25.29347
G1 X164.218 Y52.212
G0 F4800 X163.722 Y52.282
G1 F1200 X165.532 Y54.092 E25.37861
G1 X165.602 Y54.162
G0 F4800 X165.532 Y54.657
G1 F1200 X163.157 Y52.282 E25.49032
G1 X163.087 Y52.212
G0 F4800 X162.591 Y52.282
G1 F1200 X165.532 Y55.223 E25.62866
G1 X165.602 Y55.293
G0 F4800 X165.532 Y55.789
G1 F1200 X162.025 Y52.282 E25.79361
G1 X161.955 Y52.212
G0 F4800 X161.46 Y52.282
G1 F1200 X165.532 Y56.354 E25.98515
G1 X165.602 Y56.424
G0 F4800 X165.209 Y56.597
G1 F1200 X160.894 Y52.282 E26.18811
G1 X160.824 Y52.212
G0 F4800 X160.328 Y52.282
G1 F1200 X164.643 Y56.597 E26.39108
G1 X164.713 Y56.667
G0 F4800 X164.077 Y56.597
G1 F1200 X159.762 Y52.282 E26.59404
G1 X159.692 Y52.212
G0 F4800 X159.197 Y52.282
G1 F1200 X163.512 Y56.597 E26.79701
G1 X163.582 Y56.667
G0 F4800 X162.946 Y56.597
G1 F1200 X158.631 Y52.282 E26.99997
G1 X158.561 Y52.212
G0 F4800 X158.065 Y52.282
G1 F1200 X162.38 Y56.597 E27.20293
G1 X162.45 Y56.667
G0 F4800 X161.815 Y56.597
G1 F1200 X157.5 Y52.282 E27.4059
