;FLAVOR:Marlin
;TIME:3065
;Filament used: 2.09397m
;Layer height: 0.2
;Generated with Cura_SteamEngine 3.4.0
M104 S200
M109 S200
M82 ;absolute extrusion mode
; -- START GCODE --
G21                     ;set units to millimetres
G90                     ;set to absolute positioning
M106 S0                 ;set fan speed to zero (turned off)
G28 X0 Y0               ;move to the X/Y origin (Home)
G28 Z0                  ;move to the Z origin (Home)
G1 Z15.0 F1200          ;move Z to position 15.0 mm
G92 E0                  ;zero the extruded length
G1 E20 F200             ;extrude 20mm of feed stock
G92 E0                  ;zero the extruded length again
G1 F7200                ;set feedrate to 120 mm/s
; -- end of START GCODE --
G92 E0
G1 F1500 E-6.5
;LAYER_COUNT:101
;LAYER:0
M107
G0 F2400 X91.892 Y88.109 Z0.2
;TYPE:SKIRT
G1 F1500 E0
G1 F1200 X92.095 Y87.916 E0.00932
G1 X93.717 Y86.482 E0.08132
G1 X94.105 Y86.183 E0.09762
G1 X96.425 Y84.637 E0.19034
G1 X96.86 Y84.389 E0.207
G1 X99.356 Y83.188 E0.29913
G1 X99.827 Y83.001 E0.31598
G1 X102.541 Y82.139 E0.41069
G1 X103.028 Y82.021 E0.42736
G1 X105.751 Y81.558 E0.51923
G1 X106.253 Y81.508 E0.536
G1 X109.056 Y81.429 E0.62927
G1 X109.559 Y81.451 E0.64602
G1 X112.327 Y81.762 E0.73866
G1 X112.802 Y81.848 E0.75471
G1 X114.871 Y82.368 E0.82567
G1 X115.129 Y82.443 E0.83461
G1 X116.393 Y82.863 E0.87891
G1 X116.655 Y82.961 E0.88821
G1 X118.666 Y83.808 E0.96079
G1 X119.1 Y84.026 E0.97694
G1 X121.489 Y85.437 E1.06922
G1 X121.902 Y85.722 E1.08591
G1 X124.08 Y87.458 E1.17855
G1 X124.452 Y87.8 E1.19536
G1 X126.395 Y89.855 E1.28942
G1 X126.719 Y90.251 E1.30644
G1 X128.356 Y92.568 E1.4008
G1 X128.617 Y92.997 E1.4175
G1 X129.87 Y95.431 E1.50855
G1 X130.079 Y95.925 E1.52639
G1 X130.213 Y96.444 E1.54422
G1 X130.268 Y96.978 E1.56207
G1 X130.262 Y97.303 E1.57288
G1 X130.061 Y100.513 E1.67986
G1 X129.962 Y105.993 E1.86215
G1 X130.027 Y108.69 E1.95188
G1 X130.264 Y112.715 E2.08599
G1 X130.255 Y113.251 E2.10382
G1 X130.167 Y113.78 E2.12165
G1 X130.002 Y114.29 E2.13948
G1 X129.87 Y114.576 E2.14996
G1 X128.619 Y117.002 E2.24074
G1 X128.371 Y117.413 E2.25671
G1 X127.139 Y119.178 E2.3283
G1 X126.973 Y119.397 E2.33744
G1 X126.143 Y120.411 E2.38102
G1 X125.96 Y120.618 E2.39021
G1 X124.42 Y122.23 E2.46436
G1 X124.06 Y122.559 E2.48058
G1 X121.896 Y124.283 E2.57261
G1 X121.475 Y124.572 E2.58959
G1 X119.023 Y126.011 E2.68415
G1 X118.575 Y126.233 E2.70078
G1 X116.008 Y127.293 E2.79315
G1 X115.531 Y127.452 E2.80988
G1 X112.841 Y128.144 E2.90226
G1 X112.346 Y128.235 E2.919
G1 X109.563 Y128.548 E3.01215
G1 X109.061 Y128.57 E3.02886
G1 X106.249 Y128.492 E3.12242
G1 X105.742 Y128.441 E3.13937
G1 X102.977 Y127.968 E3.23267
G1 X102.49 Y127.85 E3.24934
G1 X99.829 Y127.001 E3.34224
G1 X99.361 Y126.814 E3.359
G1 X96.843 Y125.601 E3.45196
G1 X96.404 Y125.351 E3.46876
G1 X94.075 Y123.794 E3.56194
G1 X93.677 Y123.485 E3.5787
G1 X91.589 Y121.619 E3.67184
G1 X91.234 Y121.253 E3.6888
G1 X89.405 Y119.08 E3.78326
G1 X89.109 Y118.674 E3.79998
G1 X87.637 Y116.326 E3.89215
G1 X87.4 Y115.883 E3.90886
G1 X86.256 Y113.324 E4.00209
G1 X86.084 Y112.853 E4.01877
G1 X85.314 Y110.183 E4.11119
G1 X85.208 Y109.688 E4.12803
G1 X84.815 Y106.904 E4.22154
G1 X84.78 Y106.395 E4.23851
G1 X84.785 Y103.543 E4.33337
G1 X84.821 Y103.042 E4.35008
G1 X85.21 Y100.305 E4.44202
G1 X85.311 Y99.83 E4.45818
G1 X85.876 Y97.838 E4.52704
G1 X85.959 Y97.581 E4.53603
G1 X86.461 Y96.212 E4.58452
G1 X86.563 Y95.963 E4.59347
G1 X87.417 Y94.082 E4.66218
G1 X87.647 Y93.654 E4.67834
G1 X89.139 Y91.281 E4.77157
G1 X89.426 Y90.887 E4.78778
G1 X90.758 Y89.295 E4.85682
G1 X90.932 Y89.101 E4.86549
G1 X91.892 Y88.109 E4.91141
G0 F2400 X92.179 Y88.388
G1 F1200 X92.359 Y88.216 E4.91969
G1 X93.981 Y86.782 E4.99169
G1 X94.326 Y86.516 E5.00618
G1 X96.646 Y84.97 E5.09891
G1 X97.034 Y84.749 E5.11376
G1 X99.53 Y83.548 E5.20589
G1 X99.948 Y83.382 E5.22085
G1 X102.662 Y82.52 E5.31556
G1 X103.095 Y82.415 E5.33038
G1 X105.818 Y81.952 E5.42225
G1 X106.264 Y81.908 E5.43715
G1 X109.067 Y81.829 E5.53042
G1 X109.514 Y81.848 E5.5453
G1 X112.282 Y82.159 E5.63794
G1 X112.705 Y82.236 E5.65224
G1 X114.774 Y82.756 E5.7232
G1 X115.003 Y82.822 E5.73112
G1 X116.267 Y83.242 E5.77543
G1 X116.5 Y83.33 E5.78371
G1 X118.511 Y84.177 E5.85629
G1 X118.896 Y84.371 E5.87062
G1 X121.285 Y85.782 E5.96291
G1 X121.653 Y86.035 E5.97776
G1 X123.831 Y87.771 E6.0704
G1 X124.161 Y88.075 E6.08532
G1 X126.104 Y90.13 E6.17938
G1 X126.393 Y90.482 E6.19453
G1 X128.03 Y92.799 E6.28889
G1 X128.261 Y93.18 E6.30371
G1 X129.514 Y95.614 E6.39476
G1 X129.709 Y96.081 E6.41159
G1 X129.829 Y96.572 E6.4284
G1 X129.863 Y97.279 E6.45195
G1 X129.661 Y100.505 E6.55945
G1 X129.561 Y105.995 E6.74208
G1 X129.628 Y108.722 E6.83281
G1 X129.864 Y112.738 E6.96661
G1 X129.854 Y113.244 E6.98345
G1 X129.764 Y113.741 E7.00025
G1 X129.514 Y114.393 E7.02347
G1 X128.263 Y116.819 E7.11426
G1 X128.043 Y117.184 E7.12843
G1 X126.811 Y118.949 E7.20002
G1 X126.663 Y119.144 E7.20816
G1 X125.833 Y120.158 E7.25175
G1 X125.671 Y120.341 E7.25988
G1 X124.131 Y121.953 E7.33403
G1 X123.811 Y122.246 E7.34846
G1 X121.647 Y123.97 E7.44048
G1 X121.273 Y124.227 E7.45557
G1 X118.821 Y125.666 E7.55013
G1 X118.422 Y125.864 E7.56495
G1 X115.855 Y126.924 E7.65732
G1 X115.431 Y127.065 E7.67218
G1 X112.741 Y127.757 E7.76456
G1 X112.302 Y127.838 E7.77941
G1 X109.519 Y128.151 E7.87256
G1 X109.072 Y128.17 E7.88744
G1 X106.26 Y128.092 E7.981
G1 X105.809 Y128.047 E7.99608
G1 X103.044 Y127.574 E8.08938
G1 X102.611 Y127.469 E8.1042
G1 X99.95 Y126.62 E8.1971
G1 X99.534 Y126.454 E8.21199
G1 X97.016 Y125.241 E8.30495
G1 X96.627 Y125.018 E8.31987
G1 X94.298 Y123.461 E8.41305
G1 X93.944 Y123.187 E8.42794
G1 X91.856 Y121.321 E8.52107
G1 X91.54 Y120.996 E8.53615
G1 X89.711 Y118.823 E8.63062
G1 X89.448 Y118.462 E8.64547
G1 X87.976 Y116.114 E8.73765
G1 X87.766 Y115.72 E8.7525
G1 X86.622 Y113.161 E8.84573
G1 X86.468 Y112.742 E8.86057
G1 X85.698 Y110.072 E8.953
G1 X85.604 Y109.632 E8.96796
G1 X85.211 Y106.848 E9.06148
G1 X85.18 Y106.395 E9.07658
G1 X85.185 Y103.543 E9.17144
G1 X85.217 Y103.099 E9.18624
G1 X85.606 Y100.362 E9.27819
G1 X85.695 Y99.939 E9.29257
G1 X86.26 Y97.947 E9.36144
G1 X86.335 Y97.718 E9.36945
G1 X86.837 Y96.349 E9.41795
G1 X86.927 Y96.128 E9.42589
G1 X87.781 Y94.247 E9.49459
G1 X87.986 Y93.867 E9.50895
G1 X89.478 Y91.494 E9.60218
G1 X89.733 Y91.144 E9.61659
G1 X91.065 Y89.552 E9.68563
G1 X91.219 Y89.38 E9.69331
G1 X92.179 Y88.388 E9.73922
G1 F1500 E3.23922
G0 F2400 X93.862 Y90.274
G0 X94.705 Y91.216
G0 X101.508 Y95.523
G0 X101.978 Y95.728
G0 X102.362 Y96.019
G0 X104.569 Y98.228
G0 X104.851 Y98.589
G0 X105.062 Y99.059
G0 X105.156 Y99.567
G0 X105.125 Y100.083
G0 X104.751 Y101.056
G0 X104.673 Y100.995
;TYPE:WALL-INNER
G1 F1500 E9.73922
G1 F1200 X104.762 Y100.847 E9.74496
G1 X104.777 Y100.822 E9.74593
G1 X104.935 Y100.56 E9.75611
G1 X105.086 Y100.076 E9.77297
G1 X105.117 Y99.569 E9.78987
G1 X105.024 Y99.07 E9.80675
G1 X104.817 Y98.609 E9.82356
G1 X104.54 Y98.254 E9.83853
G1 X102.336 Y96.049 E9.94223
G1 X101.958 Y95.762 E9.95801
G1 X101.497 Y95.561 E9.97474
G1 X101.022 Y95.475 E9.99079
G1 X100.516 Y95.506 E10.00766
G1 X100.031 Y95.657 E10.02455
G1 X99.598 Y95.919 E10.04138
G1 X99.238 Y96.277 E10.05827
G1 X98.975 Y96.713 E10.07521
G1 X98.826 Y97.197 E10.09205
G1 X98.795 Y97.702 E10.10888
G1 X98.886 Y98.202 E10.12578
G1 X99.094 Y98.663 E10.1426
G1 X99.384 Y99.034 E10.15826
G1 X101.557 Y101.207 E10.26047
G1 X101.927 Y101.497 E10.27611
G1 X102.39 Y101.706 E10.29301
G1 X102.89 Y101.797 E10.30991
G1 X103.395 Y101.766 E10.32674
G1 X103.881 Y101.616 E10.34365
G1 X104.138 Y101.46 E10.35365
G1 X104.164 Y101.444 E10.35467
G1 X104.314 Y101.352 E10.36052
G1 X104.673 Y100.995 E10.37736
G0 F2400 X104.751 Y101.056
G0 X103.766 Y102.612
G0 X99.368 Y103.161
G0 X98.94 Y103.323
G0 X98.564 Y103.582
G0 X98.261 Y103.926
G0 X98.049 Y104.329
G0 X97.94 Y104.772
G0 X97.94 Y105.228
G0 X98.049 Y105.671
G0 X98.261 Y106.074
G0 X98.564 Y106.418
G0 X98.902 Y106.651
G0 X103.922 Y108.293
G0 X103.881 Y108.384
G1 F1200 X103.395 Y108.234 E10.39428
G1 X102.89 Y108.203 E10.41111
G1 X102.39 Y108.294 E10.42801
G1 X101.928 Y108.503 E10.44487
G1 X101.574 Y108.78 E10.45982
G1 X99.371 Y110.982 E10.56342
G1 X99.094 Y111.337 E10.5784
G1 X98.886 Y111.798 E10.59522
G1 X98.795 Y112.298 E10.61212
G1 X98.826 Y112.803 E10.62895
G1 X98.975 Y113.287 E10.6458
G1 X99.238 Y113.723 E10.66273
G1 X99.598 Y114.081 E10.67962
G1 X100.031 Y114.343 E10.69645
G1 X100.516 Y114.494 E10.71335
G1 X101.022 Y114.525 E10.73021
G1 X101.521 Y114.434 E10.74708
G1 X101.983 Y114.225 E10.76394
G1 X102.354 Y113.935 E10.7796
G1 X104.527 Y111.762 E10.88182
G1 X104.817 Y111.391 E10.89748
G1 X105.024 Y110.93 E10.91429
G1 X105.117 Y110.431 E10.93117
G1 X105.086 Y109.924 E10.94806
G1 X104.935 Y109.44 E10.96493
G1 X104.777 Y109.178 E10.9751
G1 X104.762 Y109.153 E10.97607
G1 X104.673 Y109.005 E10.98182
G1 X104.314 Y108.648 E10.99865
G1 X104.166 Y108.558 E11.00442
G1 X104.14 Y108.542 E11.00543
G1 X103.881 Y108.384 E11.01552
G0 F2400 X103.922 Y108.293
G0 X105.932 Y109.554
G0 X106.479 Y113.949
G0 X106.64 Y114.376
G0 X106.899 Y114.751
G0 X107.237 Y115.052
G0 X107.638 Y115.267
G0 X108.078 Y115.377
G0 X108.531 Y115.383
G0 X108.976 Y115.277
G0 X109.381 Y115.069
G0 X109.722 Y114.769
G0 X109.987 Y114.397
G0 X110.912 Y111.293
G0 X111.888 Y108.944
G0 X111.966 Y109.005
G1 F1200 X111.877 Y109.153 E11.02127
G1 X111.861 Y109.179 E11.02228
G1 X111.703 Y109.441 E11.03246
G1 X111.554 Y109.925 E11.0493
G1 X111.523 Y110.43 E11.06613
G1 X111.614 Y110.93 E11.08303
G1 X111.822 Y111.391 E11.09985
G1 X112.112 Y111.762 E11.11552
G1 X114.285 Y113.935 E11.21773
G1 X114.655 Y114.225 E11.23336
G1 X115.118 Y114.434 E11.25026
G1 X115.618 Y114.525 E11.26716
G1 X116.124 Y114.494 E11.28402
G1 X116.608 Y114.343 E11.30089
G1 X117.041 Y114.081 E11.31772
G1 X117.401 Y113.723 E11.33461
G1 X117.663 Y113.288 E11.35149
G1 X117.814 Y112.804 E11.36836
G1 X117.845 Y112.297 E11.38525
G1 X117.752 Y111.798 E11.40214
G1 X117.545 Y111.337 E11.41894
G1 X117.255 Y110.966 E11.4346
G1 X115.082 Y108.793 E11.53682
G1 X114.711 Y108.503 E11.55248
G1 X114.249 Y108.294 E11.56934
G1 X113.75 Y108.203 E11.58621
G1 X113.245 Y108.234 E11.60304
G1 X112.758 Y108.384 E11.61999
G1 X112.501 Y108.54 E11.62999
G1 X112.475 Y108.556 E11.63101
G1 X112.325 Y108.648 E11.63686
G1 X111.966 Y109.005 E11.6537
G0 F2400 X111.888 Y108.944
G0 X111.678 Y109.495
G0 X110.04 Y114.426
G0 X109.952 Y114.379
G1 F1200 X110.112 Y113.964 E11.66849
G1 X110.167 Y113.557 E11.68215
G1 X110.17 Y109.729 E11.80947
G1 X110.69 Y109.519 E11.82812
G1 X111.521 Y108.971 E11.86123
G1 X111.546 Y108.954 E11.86222
G1 X111.73 Y108.77 E11.87015
G1 X112.088 Y108.412 E11.8842
G1 X112.273 Y108.227 E11.89218
G1 X112.29 Y108.202 E11.89317
G1 X112.839 Y107.37 E11.92632
G1 X113.049 Y106.85 E11.94497
G1 X116.856 Y106.85 E12.07159
G1 X117.263 Y106.801 E12.08523
G1 X117.682 Y106.642 E12.10013
G1 X118.051 Y106.388 E12.11503
G1 X118.346 Y106.052 E12.1299
G1 X118.552 Y105.659 E12.14466
G1 X118.661 Y105.225 E12.15955
G1 X118.661 Y104.775 E12.17451
G1 X118.552 Y104.341 E12.1894
G1 X118.346 Y103.948 E12.20415
G1 X118.051 Y103.612 E12.21903
G1 X117.682 Y103.358 E12.23392
G1 X117.263 Y103.199 E12.24883
G1 X116.856 Y103.15 E12.26247
G1 X113.049 Y103.15 E12.38909
G1 X112.839 Y102.63 E12.40774
G1 X112.29 Y101.798 E12.44089
G1 X112.273 Y101.773 E12.4419
G1 X112.089 Y101.589 E12.45055
G1 X111.731 Y101.231 E12.46739
G1 X111.546 Y101.046 E12.47609
G1 X111.519 Y101.028 E12.47717
G1 X110.69 Y100.481 E12.51021
G1 X110.17 Y100.271 E12.52886
G1 X110.168 Y96.444 E12.65615
G1 X110.113 Y96.037 E12.66981
G1 X109.953 Y95.622 E12.6846
G1 X109.694 Y95.258 E12.69946
G1 X109.36 Y94.965 E12.71424
G1 X108.964 Y94.761 E12.72905
G1 X108.53 Y94.658 E12.74389
G1 X108.086 Y94.66 E12.75866
G1 X107.653 Y94.769 E12.77351
G1 X107.26 Y94.979 E12.78833
G1 X106.929 Y95.274 E12.80307
G1 X106.676 Y95.641 E12.8179
G1 X106.519 Y96.058 E12.83272
G1 X106.47 Y96.464 E12.84632
G1 X106.47 Y100.271 E12.97294
G1 X105.95 Y100.481 E12.99159
G1 X105.118 Y101.03 E13.02475
G1 X105.093 Y101.046 E13.02572
G1 X104.909 Y101.23 E13.03365
G1 X104.551 Y101.588 E13.0477
G1 X104.366 Y101.773 E13.05568
G1 X104.349 Y101.798 E13.05667
G1 X103.801 Y102.63 E13.0898
G1 X103.591 Y103.15 E13.10845
G1 X99.784 Y103.15 E13.23507
G1 X99.377 Y103.199 E13.24871
G1 X98.958 Y103.358 E13.26361
G1 X98.59 Y103.611 E13.27847
G1 X98.293 Y103.948 E13.29341
G1 X98.086 Y104.343 E13.30824
G1 X97.979 Y104.776 E13.32308
G1 X97.979 Y105.224 E13.33798
G1 X98.086 Y105.657 E13.35281
G1 X98.293 Y106.052 E13.36764
G1 X98.59 Y106.389 E13.38258
G1 X98.958 Y106.642 E13.39744
G1 X99.377 Y106.801 E13.41234
G1 X99.784 Y106.85 E13.42598
G1 X103.591 Y106.85 E13.5526
G1 X103.801 Y107.37 E13.57125
G1 X104.349 Y108.202 E13.60439
G1 X104.366 Y108.227 E13.60538
G1 X104.55 Y108.411 E13.61331
G1 X104.908 Y108.769 E13.62735
G1 X105.093 Y108.954 E13.63533
G1 X105.118 Y108.97 E13.6363
G1 X105.95 Y109.519 E13.66945
G1 X106.47 Y109.729 E13.68811
G1 X106.47 Y113.535 E13.81469
G1 X106.517 Y113.94 E13.82825
G1 X106.675 Y114.358 E13.84312
G1 X106.928 Y114.725 E13.85794
G1 X107.259 Y115.02 E13.87269
G1 X107.652 Y115.23 E13.88751
G1 X108.083 Y115.338 E13.90229
G1 X108.527 Y115.344 E13.91706
G1 X108.963 Y115.24 E13.93197
G1 X109.359 Y115.036 E13.94678
G1 X109.693 Y114.743 E13.96156
G1 X109.952 Y114.379 E13.97642
G0 F2400 X110.04 Y114.426
G0 X111.571 Y108.984
G0 X112.303 Y108.252
G0 X117.7 Y106.677
G0 X118.077 Y106.417
G0 X118.378 Y106.074
G0 X118.589 Y105.673
G0 X118.7 Y105.229
G0 X118.7 Y104.771
G0 X118.589 Y104.327
G0 X118.378 Y103.926
G0 X118.077 Y103.583
G0 X117.738 Y103.349
G0 X112.717 Y101.707
G0 X112.758 Y101.616
G1 F1200 X113.245 Y101.766 E13.99337
G1 X113.75 Y101.797 E14.01019
G1 X114.249 Y101.706 E14.02706
G1 X114.711 Y101.497 E14.04393
G1 X115.082 Y101.207 E14.05959
G1 X117.255 Y99.034 E14.1618
G1 X117.545 Y98.663 E14.17747
G1 X117.752 Y98.202 E14.19427
G1 X117.845 Y97.703 E14.21116
G1 X117.814 Y97.196 E14.22805
G1 X117.663 Y96.712 E14.24491
G1 X117.401 Y96.277 E14.2618
G1 X117.041 Y95.919 E14.27869
G1 X116.608 Y95.657 E14.29552
G1 X116.124 Y95.506 E14.31239
G1 X115.618 Y95.475 E14.32925
G1 X115.118 Y95.566 E14.34615
G1 X114.655 Y95.775 E14.36305
G1 X114.285 Y96.065 E14.37868
G1 X112.112 Y98.238 E14.48089
G1 X111.822 Y98.609 E14.49655
G1 X111.614 Y99.07 E14.51338
G1 X111.523 Y99.57 E14.53028
G1 X111.554 Y100.075 E14.54711
G1 X111.703 Y100.559 E14.56395
G1 X111.859 Y100.818 E14.57401
G1 X111.876 Y100.846 E14.57508
G1 X111.966 Y100.995 E14.58013
G1 X112.325 Y101.352 E14.59417
G1 X112.473 Y101.442 E14.59921
G1 X112.499 Y101.458 E14.60021
G1 X112.758 Y101.616 E14.6103
G0 F2400 X112.717 Y101.707
G0 X113.752 Y101.836
G0 X114.039 Y101.785
G0 X120.135 Y99.577
G0 X120.22 Y99.629
G1 F1200 X120.22 Y110.371 E14.96758
G1 X125.688 Y113.105 E15.17092
G1 X125.868 Y113.195 E15.17761
G1 X125.776 Y113.374 E15.18192
G1 X124.891 Y115.086 E15.24602
G1 X123.329 Y117.291 E15.3359
G1 X123.273 Y117.357 E15.33878
G1 X121.441 Y119.288 E15.42731
G1 X119.319 Y120.979 E15.51755
G1 X116.978 Y122.358 E15.60792
G1 X114.459 Y123.401 E15.6986
G1 X111.831 Y124.077 E15.78885
G1 X109.135 Y124.38 E15.87909
G1 X106.412 Y124.305 E15.96969
G1 X103.742 Y123.851 E16.05977
G1 X101.145 Y123.023 E16.15043
G1 X98.7 Y121.845 E16.2407
G1 X96.44 Y120.335 E16.3311
G1 X94.417 Y118.527 E16.42134
G1 X92.658 Y116.446 E16.51197
G1 X91.217 Y114.151 E16.6021
G1 X90.102 Y111.662 E16.69281
G1 X89.351 Y109.061 E16.78285
G1 X88.971 Y106.367 E16.87334
G1 X88.97 Y103.634 E16.96424
G1 X89.35 Y100.94 E17.05473
G1 X90.1 Y98.341 E17.1447
G1 X91.217 Y95.848 E17.23556
G1 X92.657 Y93.555 E17.32562
G1 X94.416 Y91.474 E17.41625
G1 X96.439 Y89.666 E17.50649
G1 X98.699 Y88.156 E17.59689
G1 X101.144 Y86.978 E17.68716
G1 X103.741 Y86.15 E17.77782
G1 X106.41 Y85.696 E17.86787
G1 X109.135 Y85.619 E17.95854
G1 X111.83 Y85.922 E18.04874
G1 X114.458 Y86.598 E18.13899
G1 X116.977 Y87.641 E18.22967
G1 X119.318 Y89.02 E18.32004
G1 X121.441 Y90.712 E18.41033
G1 X123.272 Y92.642 E18.49881
G1 X123.328 Y92.708 E18.50169
G1 X124.89 Y94.913 E18.59157
