;FLAVOR:Marlin
;TIME:2536
;Filament used: 1.60496m
;Layer height: 0.2
;Generated with Cura_SteamEngine 3.4.0
M104 S200
M109 S200
M82 ;absolute extrusion mode
; -- START GCODE --
G21                     ;set units to millimetres
G90                     ;set to absolute positioning
M106 S0                 ;set fan speed to zero (turned off)
G28 X0 Y0               ;move to the X/Y origin (Home)
G28 Z0                  ;move to the Z origin (Home)
G1 Z15.0 F1200          ;move Z to position 15.0 mm
G92 E0                  ;zero the extruded length
G1 E20 F200             ;extrude 20mm of feed stock
G92 E0                  ;zero the extruded length again
G1 F7200                ;set feedrate to 120 mm/s
; -- end of START GCODE --
G92 E0
G1 F1500 E-6.5
;LAYER_COUNT:21
;LAYER:0
M107
G0 F2400 X162.284 Y95.353 Z0.2
;TYPE:SKIRT
G1 F1500 E0
G1 F1200 X162.606 Y94.858 E0.01964
G1 X163.743 Y93.361 E0.08216
G1 X164.056 Y92.996 E0.09816
G1 X165 Y92.022 E0.14327
G1 X165.392 Y91.668 E0.16084
G1 X167.218 Y90.225 E0.23825
G1 X167.739 Y89.876 E0.2591
G1 X169.585 Y88.839 E0.32953
G1 X170.112 Y88.591 E0.3489
G1 X172.011 Y87.863 E0.41654
G1 X172.552 Y87.698 E0.43535
G1 X173.111 Y87.612 E0.45416
G1 X173.542 Y87.599 E0.46851
G1 X176.21 Y87.665 E0.55727
G1 X181.354 Y87.597 E0.72838
G1 X181.918 Y87.63 E0.74717
G1 X182.662 Y87.799 E0.77254
G1 X183.718 Y88.148 E0.80953
G1 X184.224 Y88.355 E0.82772
G1 X186.377 Y89.411 E0.90748
G1 X186.872 Y89.699 E0.92652
G1 X188.256 Y90.644 E0.98226
G1 X188.634 Y90.936 E0.99815
G1 X189.896 Y92.04 E1.05392
G1 X190.29 Y92.438 E1.07254
G1 X191.746 Y94.125 E1.14666
G1 X192.129 Y94.648 E1.16822
G1 X193.332 Y96.611 E1.2448
G1 X193.624 Y97.188 E1.26631
G1 X194.47 Y99.259 E1.34071
G1 X194.645 Y99.792 E1.35937
G1 X195.053 Y101.407 E1.41478
G1 X195.153 Y101.971 E1.43383
G1 X195.396 Y104.296 E1.51158
G1 X195.412 Y104.936 E1.53287
G1 X195.291 Y107.095 E1.60479
G1 X195.223 Y107.637 E1.62296
G1 X194.913 Y109.225 E1.67677
G1 X194.815 Y109.619 E1.69028
G1 X194.419 Y110.926 E1.7357
G1 X194.242 Y111.4 E1.75253
G1 X193.434 Y113.205 E1.8183
G1 X193.224 Y113.61 E1.83348
G1 X192.586 Y114.687 E1.87511
G1 X192.305 Y115.101 E1.89175
G1 X190.924 Y116.88 E1.96666
G1 X190.509 Y117.336 E1.98717
G1 X188.998 Y118.762 E2.05627
G1 X188.503 Y119.16 E2.0774
G1 X186.569 Y120.476 E2.1552
G1 X186.02 Y120.789 E2.17622
G1 X184.087 Y121.697 E2.24725
G1 X183.694 Y121.857 E2.26136
G1 X182.749 Y122.184 E2.29462
G1 X182.203 Y122.331 E2.31343
G1 X181.642 Y122.399 E2.33223
G1 X181.344 Y122.403 E2.34214
G1 X178.453 Y122.333 E2.43832
G1 X173.514 Y122.403 E2.60261
G1 X172.949 Y122.371 E2.62143
G1 X172.395 Y122.259 E2.64023
G1 X172.033 Y122.141 E2.65289
G1 X170.12 Y121.412 E2.72098
G1 X169.586 Y121.162 E2.74059
G1 X167.74 Y120.126 E2.811
G1 X167.357 Y119.882 E2.82611
G1 X166.491 Y119.257 E2.86163
G1 X166.217 Y119.04 E2.87325
G1 X165.065 Y118.045 E2.92388
G1 X164.643 Y117.621 E2.94378
G1 X163.081 Y115.799 E3.0236
G1 X162.701 Y115.275 E3.04513
G1 X161.555 Y113.391 E3.11847
G1 X161.336 Y112.98 E3.13396
G1 X160.879 Y111.984 E3.17041
G1 X160.748 Y111.661 E3.182
G1 X160.274 Y110.333 E3.2289
G1 X160.122 Y109.788 E3.24772
G1 X160.048 Y109.228 E3.26651
G1 X160.043 Y108.877 E3.27818
G1 X160.101 Y106.769 E3.34832
G1 X160.041 Y101.051 E3.53851
G1 X160.075 Y100.487 E3.55731
G1 X160.188 Y99.933 E3.57611
G1 X160.293 Y99.611 E3.58738
G1 X160.925 Y97.917 E3.64751
G1 X161.166 Y97.391 E3.66676
G1 X162.284 Y95.353 E3.74407
G0 F2400 X162.635 Y95.546
G1 F1200 X162.924 Y95.1 E3.76175
G1 X164.061 Y93.603 E3.82427
G1 X164.343 Y93.275 E3.83866
G1 X165.287 Y92.301 E3.88377
G1 X165.64 Y91.981 E3.89962
G1 X167.466 Y90.538 E3.97702
G1 X167.935 Y90.224 E3.9958
G1 X169.781 Y89.187 E4.06622
G1 X170.255 Y88.965 E4.08363
G1 X172.154 Y88.237 E4.15127
G1 X172.668 Y88.082 E4.16913
G1 X173.199 Y88.006 E4.18697
G1 X173.532 Y87.999 E4.19805
G1 X176.205 Y88.065 E4.28698
G1 X181.359 Y87.997 E4.45842
G1 X181.895 Y88.03 E4.47628
G1 X182.537 Y88.179 E4.4982
G1 X183.593 Y88.528 E4.53519
G1 X184.048 Y88.714 E4.55154
G1 X186.201 Y89.77 E4.6313
G1 X186.646 Y90.029 E4.64842
G1 X188.03 Y90.974 E4.70416
G1 X188.37 Y91.237 E4.71846
G1 X189.632 Y92.341 E4.77423
G1 X189.987 Y92.699 E4.79099
G1 X191.443 Y94.386 E4.86511
G1 X191.787 Y94.857 E4.88451
G1 X192.99 Y96.82 E4.96109
G1 X193.254 Y97.34 E4.98048
G1 X194.1 Y99.411 E5.05489
G1 X194.257 Y99.89 E5.07166
G1 X194.665 Y101.505 E5.12706
G1 X194.755 Y102.013 E5.14422
G1 X194.998 Y104.338 E5.22197
G1 X195.012 Y104.913 E5.2411
G1 X194.891 Y107.072 E5.31302
G1 X194.83 Y107.561 E5.32941
G1 X194.52 Y109.149 E5.38322
G1 X194.432 Y109.503 E5.39536
G1 X194.036 Y110.81 E5.44078
G1 X193.877 Y111.237 E5.45593
G1 X193.069 Y113.042 E5.52171
G1 X192.88 Y113.406 E5.53535
G1 X192.242 Y114.483 E5.57699
G1 X191.989 Y114.856 E5.59198
G1 X190.608 Y116.635 E5.66688
G1 X190.235 Y117.045 E5.68532
G1 X188.724 Y118.471 E5.75442
G1 X188.278 Y118.829 E5.77344
G1 X186.344 Y120.145 E5.85125
G1 X185.85 Y120.427 E5.87017
G1 X183.917 Y121.335 E5.9412
G1 X183.563 Y121.479 E5.95391
G1 X182.618 Y121.806 E5.98717
G1 X182.1 Y121.943 E6.00499
G1 X181.354 Y122.003 E6.02988
G1 X178.457 Y121.933 E6.12626
G1 X173.508 Y122.003 E6.29088
G1 X172.973 Y121.97 E6.30871
G1 X172.448 Y121.859 E6.32656
G1 X172.175 Y121.767 E6.33614
G1 X170.262 Y121.038 E6.40423
G1 X169.782 Y120.813 E6.42186
G1 X167.936 Y119.777 E6.49227
G1 X167.591 Y119.557 E6.50588
G1 X166.725 Y118.932 E6.5414
G1 X166.479 Y118.737 E6.55184
G1 X165.327 Y117.742 E6.60247
G1 X164.947 Y117.361 E6.62037
G1 X163.385 Y115.539 E6.70019
G1 X163.042 Y115.067 E6.71959
G1 X161.896 Y113.183 E6.79294
G1 X161.7 Y112.813 E6.80687
G1 X161.243 Y111.817 E6.84331
G1 X161.124 Y111.526 E6.85377
G1 X160.65 Y110.198 E6.90067
G1 X160.508 Y109.681 E6.9185
G1 X160.442 Y108.888 E6.94497
G1 X160.501 Y106.75 E7.0161
G1 X160.441 Y101.047 E7.2058
G1 X160.475 Y100.512 E7.22363
G1 X160.668 Y99.751 E7.24974
G1 X161.3 Y98.057 E7.30988
G1 X161.517 Y97.584 E7.32718
G1 X162.635 Y95.546 E7.4045
G0 F2400 X162.985 Y95.738
G1 F1200 X163.243 Y95.342 E7.42022
G1 X164.38 Y93.845 E7.48274
G1 X164.63 Y93.553 E7.49553
G1 X165.574 Y92.579 E7.54064
G1 X165.888 Y92.295 E7.55472
G1 X167.714 Y90.852 E7.63213
G1 X168.131 Y90.573 E7.64882
G1 X169.977 Y89.536 E7.71924
G1 X170.399 Y89.338 E7.73474
G1 X172.298 Y88.61 E7.80239
G1 X172.782 Y88.467 E7.81917
G1 X173.522 Y88.399 E7.84389
G1 X176.201 Y88.465 E7.93302
G1 X181.365 Y88.397 E8.10479
G1 X181.869 Y88.431 E8.12159
G1 X182.411 Y88.559 E8.14011
G1 X183.467 Y88.908 E8.17711
G1 X183.872 Y89.073 E8.19165
G1 X186.025 Y90.129 E8.27141
G1 X186.42 Y90.359 E8.28661
G1 X187.804 Y91.304 E8.34235
G1 X188.107 Y91.539 E8.35511
G1 X189.369 Y92.643 E8.41087
G1 X189.685 Y92.96 E8.42576
G1 X191.141 Y94.647 E8.49988
G1 X191.446 Y95.066 E8.51712
G1 X192.649 Y97.029 E8.59369
G1 X192.883 Y97.491 E8.61092
G1 X193.729 Y99.562 E8.68532
G1 X193.87 Y99.988 E8.70025
G1 X194.278 Y101.603 E8.75565
G1 X194.358 Y102.054 E8.77089
G1 X194.601 Y104.379 E8.84864
G1 X194.613 Y104.891 E8.86567
G1 X194.492 Y107.05 E8.93759
G1 X194.438 Y107.484 E8.95214
G1 X194.128 Y109.072 E9.00595
G1 X194.05 Y109.387 E9.01674
G1 X193.654 Y110.694 E9.06217
G1 X193.512 Y111.073 E9.07563
G1 X192.704 Y112.878 E9.1414
G1 X192.536 Y113.202 E9.15354
G1 X191.898 Y114.279 E9.19518
G1 X191.673 Y114.61 E9.20849
G1 X190.292 Y116.389 E9.28339
G1 X189.96 Y116.754 E9.29981
G1 X188.449 Y118.18 E9.36891
G1 X188.053 Y118.499 E9.38582
G1 X186.119 Y119.815 E9.46363
G1 X185.68 Y120.065 E9.48043
G1 X183.747 Y120.973 E9.55146
G1 X183.432 Y121.101 E9.56277
G1 X182.487 Y121.428 E9.59603
G1 X181.998 Y121.555 E9.61283
G1 X181.364 Y121.603 E9.63398
G1 X178.461 Y121.533 E9.73056
G1 X173.502 Y121.603 E9.89551
G1 X172.998 Y121.57 E9.91231
G1 X172.317 Y121.393 E9.93572
G1 X170.404 Y120.664 E10.00381
G1 X169.978 Y120.465 E10.01945
G1 X168.132 Y119.429 E10.08985
G1 X167.825 Y119.233 E10.10197
G1 X166.959 Y118.608 E10.13749
G1 X166.74 Y118.435 E10.14677
G1 X165.588 Y117.44 E10.1974
G1 X165.251 Y117.101 E10.2133
G1 X163.689 Y115.279 E10.29312
G1 X163.384 Y114.859 E10.31038
G1 X162.238 Y112.975 E10.38373
G1 X162.064 Y112.647 E10.39608
G1 X161.607 Y111.651 E10.43252
G1 X161.501 Y111.392 E10.44183
G1 X161.027 Y110.064 E10.48873
G1 X160.895 Y109.576 E10.50554
G1 X160.842 Y108.899 E10.52813
G1 X160.901 Y106.757 E10.5994
G1 X160.841 Y101.043 E10.78946
G1 X160.876 Y100.538 E10.8063
G1 X161.043 Y99.89 E10.82855
G1 X161.675 Y98.196 E10.88869
G1 X161.867 Y97.776 E10.90405
G1 X162.985 Y95.738 E10.98136
G1 F1500 E4.48136
G0 F2400 X165.078 Y97.124
G0 X166.15 Y97.832
G0 X170.447 Y100.895
G0 X171.187 Y101.125
G0 X171.955 Y101.078
G0 X172.659 Y100.761
G0 X173.392 Y100.022
G0 X173.304 Y99.976
;TYPE:WALL-INNER
G1 F1500 E10.98136
G1 F1200 X173.359 Y99.851 E10.9859
G1 X173.407 Y99.746 E10.98974
G1 X173.484 Y99.503 E10.99822
G1 X173.513 Y99.338 E11.00379
G1 X173.529 Y99.252 E11.0067
G1 X173.544 Y99 E11.0151
G1 X173.529 Y98.748 E11.0235
G1 X173.484 Y98.497 E11.03198
G1 X173.407 Y98.254 E11.04046
G1 X173.304 Y98.024 E11.04884
G1 X173.173 Y97.807 E11.05727
G1 X173.016 Y97.606 E11.06575
G1 X172.837 Y97.427 E11.07417
G1 X172.637 Y97.271 E11.08261
G1 X172.419 Y97.14 E11.09107
G1 X172.189 Y97.036 E11.09946
G1 X171.946 Y96.96 E11.10793
G1 X171.696 Y96.914 E11.11639
G1 X171.443 Y96.899 E11.12482
G1 X171.191 Y96.914 E11.13321
G1 X170.94 Y96.96 E11.1417
G1 X170.698 Y97.035 E11.15013
G1 X170.465 Y97.14 E11.15863
G1 X170.249 Y97.271 E11.16703
G1 X170.05 Y97.427 E11.17544
G1 X169.871 Y97.606 E11.18386
G1 X169.714 Y97.807 E11.19234
G1 X169.583 Y98.024 E11.20077
G1 X169.479 Y98.255 E11.2092
G1 X169.404 Y98.496 E11.21759
G1 X169.357 Y98.746 E11.22605
G1 X169.342 Y99 E11.23452
G1 X169.357 Y99.254 E11.24298
G1 X169.404 Y99.504 E11.25144
G1 X169.479 Y99.745 E11.25983
G1 X169.583 Y99.976 E11.26826
G1 X169.714 Y100.193 E11.27669
G1 X169.871 Y100.394 E11.28517
G1 X170.05 Y100.573 E11.29359
G1 X170.249 Y100.729 E11.302
G1 X170.465 Y100.86 E11.31041
G1 X170.698 Y100.965 E11.31891
G1 X170.94 Y101.04 E11.32733
G1 X171.191 Y101.086 E11.33582
G1 X171.443 Y101.101 E11.34422
G1 X171.696 Y101.086 E11.35265
G1 X171.778 Y101.071 E11.35542
G1 X171.946 Y101.04 E11.3611
G1 X172.189 Y100.964 E11.36957
G1 X172.304 Y100.912 E11.37377
G1 X172.419 Y100.86 E11.37796
G1 X172.437 Y100.85 E11.37865
G1 X172.609 Y100.746 E11.38533
G1 X172.637 Y100.729 E11.38642
G1 X172.74 Y100.649 E11.39076
G1 X172.837 Y100.573 E11.39486
G1 X172.855 Y100.555 E11.39571
G1 X173.002 Y100.408 E11.40262
G1 X173.016 Y100.394 E11.40328
G1 X173.089 Y100.301 E11.40721
G1 X173.173 Y100.193 E11.41176
G1 X173.193 Y100.16 E11.41305
G1 X173.285 Y100.007 E11.41898
G1 X173.304 Y99.976 E11.42019
G0 F2400 X173.392 Y100.022
G0 X172.414 Y101.152
G0 X171.81 Y101.398
G0 X171.761 Y108.636
G0 X171.843 Y108.58
G1 F1200 X172.061 Y108.666 E11.42799
G1 X172.297 Y108.759 E11.43642
G1 X172.43 Y108.812 E11.44119
G1 X172.551 Y108.872 E11.44568
G1 X172.592 Y108.893 E11.44721
G1 X172.77 Y109.001 E11.45414
G1 X172.809 Y109.028 E11.45571
G1 X172.919 Y109.107 E11.46022
G1 X173.029 Y109.201 E11.46503
G1 X173.065 Y109.232 E11.46661
G1 X173.215 Y109.381 E11.47364
G1 X173.242 Y109.413 E11.47503
G1 X173.328 Y109.514 E11.47945
G1 X173.414 Y109.636 E11.48441
G1 X173.45 Y109.686 E11.48646
G1 X173.545 Y109.844 E11.49259
G1 X173.568 Y109.89 E11.4943
G1 X173.632 Y110.016 E11.499
G1 X173.683 Y110.144 E11.50359
G1 X173.777 Y110.38 E11.51204
G1 X173.865 Y110.6 E11.51992
G1 X181.022 Y110.6 E11.75796
G1 X181.11 Y110.379 E11.76587
G1 X181.203 Y110.145 E11.77425
G1 X181.259 Y110.006 E11.77923
G1 X181.316 Y109.891 E11.7835
G1 X181.339 Y109.846 E11.78518
G1 X181.438 Y109.684 E11.79149
G1 X181.472 Y109.635 E11.79348
G1 X181.559 Y109.514 E11.79843
G1 X181.644 Y109.414 E11.8028
G1 X181.672 Y109.381 E11.80424
G1 X181.822 Y109.232 E11.81127
G1 X181.856 Y109.203 E11.81276
G1 X181.968 Y109.107 E11.81766
G1 X182.077 Y109.029 E11.82212
G1 X182.117 Y109.001 E11.82375
G1 X182.3 Y108.89 E11.83086
G1 X182.332 Y108.874 E11.83205
G1 X182.455 Y108.813 E11.83662
G1 X182.586 Y108.761 E11.84131
G1 X182.821 Y108.666 E11.84974
G1 X183.043 Y108.577 E11.85769
G1 X183.043 Y101.423 E12.09564
G1 X182.822 Y101.335 E12.10355
G1 X182.587 Y101.24 E12.11198
G1 X182.455 Y101.187 E12.11671
G1 X182.333 Y101.126 E12.12125
G1 X182.299 Y101.109 E12.12251
G1 X182.123 Y101.003 E12.12935
G1 X182.076 Y100.969 E12.13127
G1 X181.961 Y100.886 E12.13599
G1 X181.859 Y100.799 E12.14045
G1 X181.82 Y100.766 E12.14215
G1 X181.672 Y100.619 E12.14909
G1 X181.645 Y100.587 E12.15048
G1 X181.559 Y100.486 E12.15489
G1 X181.473 Y100.365 E12.15983
G1 X181.441 Y100.32 E12.16167
G1 X181.331 Y100.138 E12.16874
G1 X181.317 Y100.109 E12.16981
G1 X181.257 Y99.989 E12.17427
G1 X181.204 Y99.854 E12.1791
G1 X181.111 Y99.622 E12.18741
G1 X181.022 Y99.4 E12.19537
G1 X173.865 Y99.4 E12.43324
G1 X173.777 Y99.62 E12.44005
G1 X173.683 Y99.856 E12.44659
G1 X173.636 Y99.974 E12.44981
G1 X173.569 Y100.108 E12.45359
G1 X173.542 Y100.162 E12.45492
G1 X173.45 Y100.314 E12.45933
G1 X173.415 Y100.363 E12.46092
G1 X173.328 Y100.486 E12.46471
G1 X173.243 Y100.586 E12.46803
G1 X173.215 Y100.619 E12.46876
G1 X173.067 Y100.766 E12.47395
G1 X173.029 Y100.798 E12.47528
G1 X172.926 Y100.886 E12.47869
G1 X172.811 Y100.969 E12.48225
G1 X172.764 Y101.003 E12.48351
G1 X172.592 Y101.107 E12.48852
G1 X172.553 Y101.126 E12.48924
G1 X172.43 Y101.188 E12.49273
G1 X172.298 Y101.24 E12.49632
G1 X172.063 Y101.333 E12.50273
G1 X171.843 Y101.42 E12.5095
G1 X171.843 Y108.58 E12.74764
G0 F2400 X171.761 Y108.636
G0 X172.693 Y109.189
G0 X172.637 Y109.271
G1 F1200 X172.616 Y109.259 E12.7478
G1 X172.438 Y109.151 E12.75301
G1 X172.419 Y109.14 E12.75306
G1 X172.305 Y109.089 E12.75614
G1 X172.189 Y109.036 E12.75925
G1 X171.946 Y108.96 E12.76573
G1 X171.779 Y108.93 E12.77029
G1 X171.696 Y108.914 E12.77296
G1 X171.443 Y108.899 E12.78139
G1 X171.191 Y108.914 E12.78978
G1 X170.94 Y108.96 E12.79827
G1 X170.698 Y109.035 E12.8067
G1 X170.465 Y109.14 E12.8152
G1 X170.249 Y109.271 E12.8236
G1 X170.05 Y109.427 E12.83201
G1 X169.871 Y109.606 E12.84043
G1 X169.714 Y109.807 E12.84891
G1 X169.583 Y110.024 E12.85734
G1 X169.479 Y110.255 E12.86577
G1 X169.404 Y110.496 E12.87416
G1 X169.357 Y110.746 E12.88262
G1 X169.342 Y111 E12.89109
G1 X169.357 Y111.254 E12.89955
G1 X169.404 Y111.504 E12.90801
G1 X169.479 Y111.745 E12.9164
G1 X169.583 Y111.976 E12.92483
G1 X169.714 Y112.193 E12.93326
G1 X169.871 Y112.394 E12.94174
G1 X170.05 Y112.573 E12.95016
G1 X170.249 Y112.729 E12.95857
G1 X170.465 Y112.86 E12.96697
G1 X170.698 Y112.965 E12.97548
G1 X170.94 Y113.04 E12.9839
G1 X171.191 Y113.086 E12.99239
G1 X171.443 Y113.101 E13.00079
G1 X171.696 Y113.086 E13.00922
G1 X171.946 Y113.04 E13.01767
G1 X172.189 Y112.964 E13.02614
G1 X172.419 Y112.86 E13.03453
G1 X172.637 Y112.729 E13.04299
G1 X172.837 Y112.573 E13.05143
G1 X173.016 Y112.394 E13.05985
G1 X173.173 Y112.193 E13.06833
G1 X173.304 Y111.976 E13.07676
G1 X173.407 Y111.746 E13.08514
G1 X173.484 Y111.503 E13.09362
G1 X173.529 Y111.252 E13.1021
G1 X173.544 Y111 E13.1105
G1 X173.529 Y110.748 E13.1189
G1 X173.514 Y110.664 E13.12143
G1 X173.484 Y110.497 E13.12598
G1 X173.407 Y110.254 E13.13256
G1 X173.356 Y110.14 E13.13561
G1 X173.304 Y110.024 E13.13871
G1 X173.289 Y109.999 E13.13934
G1 X173.194 Y109.841 E13.14393
G1 X173.173 Y109.807 E13.14455
G1 X173.09 Y109.701 E13.14783
G1 X173.016 Y109.606 E13.15078
G1 X173.004 Y109.594
G1 X172.854 Y109.444 E13.15606
G1 X172.837 Y109.427 E13.1562
G1 X172.733 Y109.346 E13.15942
G1 X172.637 Y109.271 E13.16239
G0 F2400 X172.693 Y109.189
G0 X173.843 Y110.633
G0 X182.113 Y114.33
G0 X182.043 Y114.4
G1 F1200 X172.843 Y114.4 E13.46838
G1 X172.843 Y117.369 E13.56713
G1 X172.843 Y117.494 E13.57129
G1 X172.843 Y117.579 E13.57412
G1 X172.611 Y117.494 E13.57894
G1 X172.496 Y117.447 E13.58235
G1 X172.102 Y117.286 E13.59651
G1 X171.639 Y117.073 E13.61346
G1 X171.156 Y116.829 E13.63146
G1 X170.676 Y116.562 E13.64973
G1 X170.235 Y116.292 E13.66693
G1 X169.795 Y115.997 E13.68455
G1 X169.35 Y115.674 E13.70284
G1 X168.944 Y115.355 E13.72001
G1 X168.533 Y115.003 E13.73801
G1 X168.148 Y114.647 E13.75545
